(G-CODE GENERATED BY FLATCAM v8.994 - www.flatcam.org - Version Date: 2020/11/7)

(Name: PCB1.GTL_iso_combined_2_cnc)
(Type: G-code from Geometry)
(Units: MM)

(Created on Tuesday, 02 July 2024 at 13:59)

(This preprocessor is used with a motion controller loaded with GRBL firmware.)
(It is configured to be compatible with almost any version of GRBL firmware.)

(TOOL DIAMETER: 0.1 mm)
(Feedrate_XY: 120.0 mm/min)
(Feedrate_Z: 60.0 mm/min)
(Feedrate rapids 1500.0 mm/min)

(Z_Cut: 0.0 mm)
(Z_Move: 2.0 mm)
(Z Start: None mm)
(Z End: 15.0 mm)
(X,Y End: None mm)
(Steps per circle: 64)
(Steps per circle: 64)
(Preprocessor Geometry: GRBL_11_no_M6)

(X range:    5.1617 ...  106.3442  mm)
(Y range:    4.7808 ...   44.6222  mm)

(Spindle Speed: 15000.0 RPM)
G21
G90
G17
G94


G01 F120.00

M5             
G00 Z15.0000
G00 X0.0000 Y0.0000                
T1
(MSG, Change to Tool Dia = 0.1000)
M0
G00 Z15.0000
        
M03 S15000.0
G01 F120.00
G00 X5.6120 Y15.8637
G01 F60.00
G01 Z0.0000
G01 F120.00
G01 X5.6158 Y15.7902 F120.00
G01 X5.6172 Y15.7790 F120.00
G01 X5.6283 Y15.7062 F120.00
G01 X5.6459 Y15.6347 F120.00
G01 X5.6489 Y15.6238 F120.00
G01 X5.6525 Y15.6131 F120.00
G01 X5.6776 Y15.5439 F120.00
G01 X5.6821 Y15.5335 F120.00
G01 X5.7139 Y15.4671 F120.00
G01 X5.7515 Y15.4038 F120.00
G01 X5.7575 Y15.3943 F120.00
G01 X5.7640 Y15.3850 F120.00
G01 X5.8081 Y15.3260 F120.00
G01 X5.8612 Y15.2672 F120.00
G01 X7.5941 Y13.5341 F120.00
G01 X7.6527 Y13.4807 F120.00
G01 X7.6659 Y13.4702 F120.00
G01 X7.7160 Y13.4330 F120.00
G01 X7.7253 Y13.4265 F120.00
G01 X7.7348 Y13.4205 F120.00
G01 X7.7981 Y13.3829 F120.00
G01 X7.8082 Y13.3778 F120.00
G01 X7.8749 Y13.3466 F120.00
G01 X7.9441 Y13.3215 F120.00
G01 X7.9548 Y13.3179 F120.00
G01 X7.9657 Y13.3149 F120.00
G01 X8.0372 Y13.2973 F120.00
G01 X8.1156 Y13.2855 F120.00
G01 X8.1324 Y13.2840 F120.00
G01 X8.2060 Y13.2807 F120.00
G01 X14.2676 Y13.2807 F120.00
G01 X14.2696 Y13.2706 F120.00
G01 X14.2723 Y13.2597 F120.00
G01 X14.2774 Y13.2435 F120.00
G01 X14.2815 Y13.2330 F120.00
G01 X14.2861 Y13.2227 F120.00
G01 X14.2939 Y13.2076 F120.00
G01 X14.3028 Y13.1932 F120.00
G01 X14.3127 Y13.1795 F120.00
G01 X14.3198 Y13.1708 F120.00
G01 X14.3274 Y13.1624 F120.00
G01 X14.3395 Y13.1506 F120.00
G01 X14.3525 Y13.1397 F120.00
G01 X14.3616 Y13.1330 F120.00
G01 X14.3710 Y13.1267 F120.00
G01 X14.3856 Y13.1182 F120.00
G01 X14.4008 Y13.1107 F120.00
G01 X14.4165 Y13.1044 F120.00
G01 X14.4272 Y13.1009 F120.00
G01 X14.4381 Y13.0979 F120.00
G01 X14.4547 Y13.0944 F120.00
G01 X14.4658 Y13.0927 F120.00
G01 X14.4771 Y13.0916 F120.00
G01 X14.4940 Y13.0910 F120.00
G01 X16.4940 Y13.0910 F120.00
G01 X16.5109 Y13.0916 F120.00
G01 X16.5222 Y13.0927 F120.00
G01 X16.5333 Y13.0944 F120.00
G01 X16.5499 Y13.0979 F120.00
G01 X16.5608 Y13.1009 F120.00
G01 X16.5715 Y13.1044 F120.00
G01 X16.5872 Y13.1107 F120.00
G01 X16.5974 Y13.1156 F120.00
G01 X16.6074 Y13.1209 F120.00
G01 X16.6170 Y13.1267 F120.00
G01 X16.6264 Y13.1330 F120.00
G01 X16.6399 Y13.1432 F120.00
G01 X16.6485 Y13.1506 F120.00
G01 X16.6566 Y13.1584 F120.00
G01 X16.6682 Y13.1708 F120.00
G01 X16.6787 Y13.1840 F120.00
G01 X16.6852 Y13.1932 F120.00
G01 X16.6913 Y13.2028 F120.00
G01 X16.6968 Y13.2126 F120.00
G01 X16.7019 Y13.2227 F120.00
G01 X16.7086 Y13.2382 F120.00
G01 X16.7124 Y13.2489 F120.00
G01 X16.7157 Y13.2597 F120.00
G01 X16.7184 Y13.2706 F120.00
G01 X16.7204 Y13.2807 F120.00
G01 X25.2006 Y13.2808 F120.00
G01 X25.2798 Y13.2848 F120.00
G01 X25.2910 Y13.2862 F120.00
G01 X25.3638 Y13.2973 F120.00
G01 X25.4353 Y13.3149 F120.00
G01 X25.4462 Y13.3179 F120.00
G01 X25.5156 Y13.3425 F120.00
G01 X25.5295 Y13.3480 F120.00
G01 X26.4270 Y13.3480 F120.00
G01 X26.4383 Y13.3483 F120.00
G01 X26.4495 Y13.3491 F120.00
G01 X26.4607 Y13.3505 F120.00
G01 X26.4719 Y13.3524 F120.00
G01 X26.4883 Y13.3563 F120.00
G01 X26.5045 Y13.3614 F120.00
G01 X26.5150 Y13.3655 F120.00
G01 X26.5253 Y13.3701 F120.00
G01 X26.5404 Y13.3779 F120.00
G01 X26.5500 Y13.3837 F120.00
G01 X26.5594 Y13.3900 F120.00
G01 X26.5685 Y13.3967 F120.00
G01 X26.5772 Y13.4038 F120.00
G01 X26.5896 Y13.4154 F120.00
G01 X26.6012 Y13.4278 F120.00
G01 X26.6083 Y13.4365 F120.00
G01 X26.6150 Y13.4456 F120.00
G01 X26.6213 Y13.4550 F120.00
G01 X26.6271 Y13.4646 F120.00
G01 X26.6324 Y13.4746 F120.00
G01 X26.6373 Y13.4848 F120.00
G01 X26.6416 Y13.4952 F120.00
G01 X26.6454 Y13.5059 F120.00
G01 X26.6487 Y13.5167 F120.00
G01 X26.6514 Y13.5276 F120.00
G01 X26.6536 Y13.5387 F120.00
G01 X26.6553 Y13.5498 F120.00
G01 X26.6564 Y13.5611 F120.00
G01 X26.6569 Y13.5724 F120.00
G01 X26.6570 Y15.3780 F120.00
G01 X26.6564 Y15.3949 F120.00
G01 X26.6545 Y15.4117 F120.00
G01 X26.6526 Y15.4229 F120.00
G01 X26.6501 Y15.4339 F120.00
G01 X26.6454 Y15.4501 F120.00
G01 X26.6416 Y15.4608 F120.00
G01 X26.6373 Y15.4712 F120.00
G01 X26.6324 Y15.4814 F120.00
G01 X26.6271 Y15.4914 F120.00
G01 X26.6213 Y15.5010 F120.00
G01 X26.6150 Y15.5104 F120.00
G01 X26.6048 Y15.5239 F120.00
G01 X26.5974 Y15.5325 F120.00
G01 X26.5896 Y15.5406 F120.00
G01 X26.5815 Y15.5484 F120.00
G01 X26.5729 Y15.5558 F120.00
G01 X26.5594 Y15.5660 F120.00
G01 X26.5500 Y15.5723 F120.00
G01 X26.5404 Y15.5781 F120.00
G01 X26.5253 Y15.5859 F120.00
G01 X26.5098 Y15.5926 F120.00
G01 X26.4991 Y15.5964 F120.00
G01 X26.4883 Y15.5997 F120.00
G01 X26.4774 Y15.6024 F120.00
G01 X26.4663 Y15.6046 F120.00
G01 X26.4495 Y15.6069 F120.00
G01 X26.4383 Y15.6077 F120.00
G01 X26.4270 Y15.6080 F120.00
G01 X24.6270 Y15.6080 F120.00
G01 X24.6101 Y15.6074 F120.00
G01 X24.5933 Y15.6055 F120.00
G01 X24.5766 Y15.6024 F120.00
G01 X24.5602 Y15.5981 F120.00
G01 X24.5442 Y15.5926 F120.00
G01 X24.5338 Y15.5883 F120.00
G01 X24.5236 Y15.5834 F120.00
G01 X24.5088 Y15.5753 F120.00
G01 X24.4946 Y15.5660 F120.00
G01 X24.4811 Y15.5558 F120.00
G01 X24.4725 Y15.5484 F120.00
G01 X24.4604 Y15.5366 F120.00
G01 X24.4492 Y15.5239 F120.00
G01 X24.4423 Y15.5150 F120.00
G01 X24.4358 Y15.5058 F120.00
G01 X24.4269 Y15.4914 F120.00
G01 X24.4216 Y15.4814 F120.00
G01 X24.4145 Y15.4660 F120.00
G01 X24.4104 Y15.4555 F120.00
G01 X24.4053 Y15.4393 F120.00
G01 X24.4026 Y15.4284 F120.00
G01 X24.3995 Y15.4117 F120.00
G01 X24.3981 Y15.4005 F120.00
G01 X24.3971 Y15.3836 F120.00
G01 X24.3970 Y15.0113 F120.00
G01 X16.7204 Y15.0113 F120.00
G01 X16.7184 Y15.0214 F120.00
G01 X16.7157 Y15.0323 F120.00
G01 X16.7124 Y15.0431 F120.00
G01 X16.7086 Y15.0538 F120.00
G01 X16.7043 Y15.0642 F120.00
G01 X16.6994 Y15.0744 F120.00
G01 X16.6913 Y15.0892 F120.00
G01 X16.6852 Y15.0988 F120.00
G01 X16.6787 Y15.1080 F120.00
G01 X16.6682 Y15.1212 F120.00
G01 X16.6566 Y15.1336 F120.00
G01 X16.6485 Y15.1414 F120.00
G01 X16.6399 Y15.1488 F120.00
G01 X16.6310 Y15.1557 F120.00
G01 X16.6218 Y15.1622 F120.00
G01 X16.6074 Y15.1711 F120.00
G01 X16.5974 Y15.1764 F120.00
G01 X16.5872 Y15.1813 F120.00
G01 X16.5715 Y15.1876 F120.00
G01 X16.5553 Y15.1927 F120.00
G01 X16.5444 Y15.1954 F120.00
G01 X16.5333 Y15.1976 F120.00
G01 X16.5165 Y15.1999 F120.00
G01 X16.5053 Y15.2007 F120.00
G01 X16.4940 Y15.2010 F120.00
G01 X14.4940 Y15.2010 F120.00
G01 X14.4771 Y15.2004 F120.00
G01 X14.4603 Y15.1985 F120.00
G01 X14.4436 Y15.1954 F120.00
G01 X14.4272 Y15.1911 F120.00
G01 X14.4165 Y15.1876 F120.00
G01 X14.4060 Y15.1835 F120.00
G01 X14.3906 Y15.1764 F120.00
G01 X14.3806 Y15.1711 F120.00
G01 X14.3710 Y15.1653 F120.00
G01 X14.3616 Y15.1590 F120.00
G01 X14.3525 Y15.1523 F120.00
G01 X14.3395 Y15.1414 F120.00
G01 X14.3274 Y15.1296 F120.00
G01 X14.3162 Y15.1169 F120.00
G01 X14.3093 Y15.1080 F120.00
G01 X14.3028 Y15.0988 F120.00
G01 X14.2939 Y15.0844 F120.00
G01 X14.2886 Y15.0744 F120.00
G01 X14.2837 Y15.0642 F120.00
G01 X14.2774 Y15.0485 F120.00
G01 X14.2723 Y15.0323 F120.00
G01 X14.2696 Y15.0214 F120.00
G01 X14.2676 Y15.0113 F120.00
G01 X8.5644 Y15.0113 F120.00
G01 X7.3423 Y16.2334 F120.00
G01 X7.3423 Y27.7086 F120.00
G01 X10.4694 Y30.8357 F120.00
G01 X24.0466 Y30.8357 F120.00
G01 X24.0486 Y30.8256 F120.00
G01 X24.0513 Y30.8147 F120.00
G01 X24.0564 Y30.7985 F120.00
G01 X24.0627 Y30.7828 F120.00
G01 X24.0676 Y30.7726 F120.00
G01 X24.0729 Y30.7626 F120.00
G01 X24.0818 Y30.7482 F120.00
G01 X24.0883 Y30.7390 F120.00
G01 X24.0952 Y30.7301 F120.00
G01 X24.1064 Y30.7174 F120.00
G01 X24.1185 Y30.7056 F120.00
G01 X24.1315 Y30.6947 F120.00
G01 X24.1406 Y30.6880 F120.00
G01 X24.1500 Y30.6817 F120.00
G01 X24.1646 Y30.6732 F120.00
G01 X24.1798 Y30.6657 F120.00
G01 X24.1955 Y30.6594 F120.00
G01 X24.2062 Y30.6559 F120.00
G01 X24.2171 Y30.6529 F120.00
G01 X24.2281 Y30.6504 F120.00
G01 X24.2393 Y30.6485 F120.00
G01 X24.2561 Y30.6466 F120.00
G01 X24.2730 Y30.6460 F120.00
G01 X26.2730 Y30.6460 F120.00
G01 X26.2843 Y30.6463 F120.00
G01 X26.2955 Y30.6471 F120.00
G01 X26.3067 Y30.6485 F120.00
G01 X26.3234 Y30.6516 F120.00
G01 X26.3343 Y30.6543 F120.00
G01 X26.3451 Y30.6576 F120.00
G01 X26.3558 Y30.6614 F120.00
G01 X26.3713 Y30.6681 F120.00
G01 X26.3814 Y30.6732 F120.00
G01 X26.3960 Y30.6817 F120.00
G01 X26.4100 Y30.6913 F120.00
G01 X26.4232 Y30.7018 F120.00
G01 X26.4316 Y30.7094 F120.00
G01 X26.4434 Y30.7215 F120.00
G01 X26.4543 Y30.7345 F120.00
G01 X26.4642 Y30.7482 F120.00
G01 X26.4703 Y30.7578 F120.00
G01 X26.4784 Y30.7726 F120.00
G01 X26.4855 Y30.7880 F120.00
G01 X26.4914 Y30.8039 F120.00
G01 X26.4961 Y30.8201 F120.00
G01 X26.4986 Y30.8311 F120.00
G01 X26.5013 Y30.8478 F120.00
G01 X26.5024 Y30.8591 F120.00
G01 X26.5030 Y30.8760 F120.00
G01 X26.5030 Y32.5260 F120.00
G01 X26.5027 Y32.5373 F120.00
G01 X26.5019 Y32.5485 F120.00
G01 X26.4996 Y32.5653 F120.00
G01 X26.4974 Y32.5764 F120.00
G01 X26.4931 Y32.5928 F120.00
G01 X26.4896 Y32.6035 F120.00
G01 X26.4833 Y32.6192 F120.00
G01 X26.4784 Y32.6294 F120.00
G01 X26.4703 Y32.6442 F120.00
G01 X26.4642 Y32.6538 F120.00
G01 X26.4543 Y32.6675 F120.00
G01 X26.4434 Y32.6805 F120.00
G01 X26.4356 Y32.6886 F120.00
G01 X26.4275 Y32.6964 F120.00
G01 X26.4145 Y32.7073 F120.00
G01 X26.4054 Y32.7140 F120.00
G01 X26.3912 Y32.7233 F120.00
G01 X26.3814 Y32.7288 F120.00
G01 X26.3713 Y32.7339 F120.00
G01 X26.3610 Y32.7385 F120.00
G01 X26.3505 Y32.7426 F120.00
G01 X26.3398 Y32.7461 F120.00
G01 X26.3289 Y32.7491 F120.00
G01 X26.3179 Y32.7516 F120.00
G01 X26.3012 Y32.7543 F120.00
G01 X26.2899 Y32.7554 F120.00
G01 X26.2730 Y32.7560 F120.00
G01 X26.1383 Y32.7560 F120.00
G01 X26.1383 Y36.3446 F120.00
G01 X26.9014 Y37.1077 F120.00
G01 X37.9967 Y37.1077 F120.00
G01 X37.9967 Y32.6240 F120.00
G01 X37.9845 Y32.6116 F120.00
G01 X37.9112 Y32.5303 F120.00
G01 X37.8458 Y32.4426 F120.00
G01 X37.8393 Y32.4334 F120.00
G01 X37.8333 Y32.4238 F120.00
G01 X37.7772 Y32.3298 F120.00
G01 X37.7302 Y32.2310 F120.00
G01 X37.7256 Y32.2207 F120.00
G01 X37.7216 Y32.2102 F120.00
G01 X37.6885 Y32.1178 F120.00
G01 X37.6850 Y32.1071 F120.00
G01 X37.6820 Y32.0962 F120.00
G01 X37.6556 Y31.9900 F120.00
G01 X37.6393 Y31.8818 F120.00
G01 X37.6379 Y31.8706 F120.00
G01 X37.6371 Y31.8593 F120.00
G01 X37.6320 Y31.7500 F120.00
G01 X37.6371 Y31.6407 F120.00
G01 X37.6385 Y31.6238 F120.00
G01 X37.6537 Y31.5212 F120.00
G01 X37.6556 Y31.5100 F120.00
G01 X37.6820 Y31.4038 F120.00
G01 X37.6850 Y31.3929 F120.00
G01 X37.7216 Y31.2898 F120.00
G01 X37.7256 Y31.2793 F120.00
G01 X37.7722 Y31.1803 F120.00
G01 X37.7772 Y31.1702 F120.00
G01 X37.7828 Y31.1604 F120.00
G01 X37.8393 Y31.0666 F120.00
G01 X37.9043 Y30.9786 F120.00
G01 X37.9112 Y30.9697 F120.00
G01 X37.9186 Y30.9611 F120.00
G01 X37.9845 Y30.8884 F120.00
G01 X37.9923 Y30.8803 F120.00
G01 X38.0004 Y30.8725 F120.00
G01 X38.0817 Y30.7992 F120.00
G01 X38.1694 Y30.7338 F120.00
G01 X38.1786 Y30.7273 F120.00
G01 X38.1882 Y30.7213 F120.00
G01 X38.2822 Y30.6652 F120.00
G01 X38.3810 Y30.6182 F120.00
G01 X38.3913 Y30.6136 F120.00
G01 X38.4942 Y30.5765 F120.00
G01 X38.5049 Y30.5730 F120.00
G01 X38.5158 Y30.5700 F120.00
G01 X38.6220 Y30.5436 F120.00
G01 X38.7302 Y30.5273 F120.00
G01 X38.7414 Y30.5259 F120.00
G01 X38.7527 Y30.5251 F120.00
G01 X38.8564 Y30.5201 F120.00
G01 X38.8733 Y30.5203 F120.00
G01 X38.9826 Y30.5259 F120.00
G01 X38.9938 Y30.5273 F120.00
G01 X39.1020 Y30.5436 F120.00
G01 X39.2082 Y30.5700 F120.00
G01 X39.2191 Y30.5730 F120.00
G01 X39.3222 Y30.6096 F120.00
G01 X39.3327 Y30.6136 F120.00
G01 X39.3430 Y30.6182 F120.00
G01 X39.4317 Y30.6602 F120.00
G01 X39.4418 Y30.6652 F120.00
G01 X39.4516 Y30.6708 F120.00
G01 X39.5454 Y30.7273 F120.00
G01 X39.6334 Y30.7923 F120.00
G01 X39.6423 Y30.7992 F120.00
G01 X39.6509 Y30.8066 F120.00
G01 X39.7317 Y30.8803 F120.00
G01 X39.7395 Y30.8884 F120.00
G01 X39.8128 Y30.9697 F120.00
G01 X39.8782 Y31.0574 F120.00
G01 X39.8847 Y31.0666 F120.00
G01 X39.8907 Y31.0762 F120.00
G01 X39.9468 Y31.1702 F120.00
G01 X39.9938 Y31.2690 F120.00
G01 X39.9984 Y31.2793 F120.00
G01 X40.0355 Y31.3822 F120.00
G01 X40.0390 Y31.3929 F120.00
G01 X40.0420 Y31.4038 F120.00
G01 X40.0684 Y31.5100 F120.00
G01 X40.0703 Y31.5212 F120.00
G01 X40.0855 Y31.6238 F120.00
G01 X40.0869 Y31.6407 F120.00
G01 X40.0920 Y31.7500 F120.00
G01 X40.0869 Y31.8593 F120.00
G01 X40.0861 Y31.8706 F120.00
G01 X40.0847 Y31.8818 F120.00
G01 X40.0684 Y31.9900 F120.00
G01 X40.0420 Y32.0962 F120.00
G01 X40.0390 Y32.1071 F120.00
G01 X40.0355 Y32.1178 F120.00
G01 X40.0024 Y32.2102 F120.00
G01 X39.9984 Y32.2207 F120.00
G01 X39.9938 Y32.2310 F120.00
G01 X39.9468 Y32.3298 F120.00
G01 X39.8907 Y32.4238 F120.00
G01 X39.8847 Y32.4334 F120.00
G01 X39.8782 Y32.4426 F120.00
G01 X39.8128 Y32.5303 F120.00
G01 X39.7395 Y32.6116 F120.00
G01 X39.7273 Y32.6240 F120.00
G01 X39.7273 Y37.1077 F120.00
G01 X59.5856 Y37.1077 F120.00
G01 X60.8567 Y35.8366 F120.00
G01 X60.8567 Y32.3750 F120.00
G01 X60.8434 Y32.3749 F120.00
G01 X60.8321 Y32.3744 F120.00
G01 X60.8208 Y32.3733 F120.00
G01 X60.8097 Y32.3716 F120.00
G01 X60.7986 Y32.3694 F120.00
G01 X60.7877 Y32.3667 F120.00
G01 X60.7769 Y32.3634 F120.00
G01 X60.7662 Y32.3596 F120.00
G01 X60.7558 Y32.3553 F120.00
G01 X60.7456 Y32.3504 F120.00
G01 X60.7356 Y32.3451 F120.00
G01 X60.7260 Y32.3393 F120.00
G01 X60.7166 Y32.3330 F120.00
G01 X60.7075 Y32.3263 F120.00
G01 X60.6988 Y32.3192 F120.00
G01 X60.6904 Y32.3116 F120.00
G01 X60.6824 Y32.3036 F120.00
G01 X60.6748 Y32.2952 F120.00
G01 X60.6677 Y32.2865 F120.00
G01 X60.6610 Y32.2774 F120.00
G01 X60.6547 Y32.2680 F120.00
G01 X60.6489 Y32.2584 F120.00
G01 X60.6436 Y32.2484 F120.00
G01 X60.6387 Y32.2382 F120.00
G01 X60.6344 Y32.2278 F120.00
G01 X60.6306 Y32.2171 F120.00
G01 X60.6259 Y32.2009 F120.00
G01 X60.6234 Y32.1899 F120.00
G01 X60.6215 Y32.1787 F120.00
G01 X60.6201 Y32.1675 F120.00
G01 X60.6193 Y32.1563 F120.00
G01 X60.6190 Y32.1450 F120.00
G01 X60.6190 Y30.4950 F120.00
G01 X60.6196 Y30.4781 F120.00
G01 X60.6207 Y30.4668 F120.00
G01 X60.6234 Y30.4501 F120.00
G01 X60.6259 Y30.4391 F120.00
G01 X60.6289 Y30.4282 F120.00
G01 X60.6324 Y30.4175 F120.00
G01 X60.6365 Y30.4070 F120.00
G01 X60.6411 Y30.3967 F120.00
G01 X60.6462 Y30.3866 F120.00
G01 X60.6547 Y30.3720 F120.00
G01 X60.6610 Y30.3626 F120.00
G01 X60.6677 Y30.3535 F120.00
G01 X60.6748 Y30.3448 F120.00
G01 X60.6824 Y30.3364 F120.00
G01 X60.6945 Y30.3246 F120.00
G01 X60.7075 Y30.3137 F120.00
G01 X60.7166 Y30.3070 F120.00
G01 X60.7260 Y30.3007 F120.00
G01 X60.7356 Y30.2949 F120.00
G01 X60.7456 Y30.2896 F120.00
G01 X60.7558 Y30.2847 F120.00
G01 X60.7662 Y30.2804 F120.00
G01 X60.7769 Y30.2766 F120.00
G01 X60.7877 Y30.2733 F120.00
G01 X60.8041 Y30.2694 F120.00
G01 X60.8208 Y30.2667 F120.00
G01 X60.8321 Y30.2656 F120.00
G01 X60.8434 Y30.2651 F120.00
G01 X62.8490 Y30.2650 F120.00
G01 X62.8659 Y30.2656 F120.00
G01 X62.8827 Y30.2675 F120.00
G01 X62.8994 Y30.2706 F120.00
G01 X62.9103 Y30.2733 F120.00
G01 X62.9211 Y30.2766 F120.00
G01 X62.9370 Y30.2825 F120.00
G01 X62.9524 Y30.2896 F120.00
G01 X62.9672 Y30.2977 F120.00
G01 X62.9814 Y30.3070 F120.00
G01 X62.9949 Y30.3172 F120.00
G01 X63.0076 Y30.3284 F120.00
G01 X63.0156 Y30.3364 F120.00
G01 X63.0232 Y30.3448 F120.00
G01 X63.0337 Y30.3580 F120.00
G01 X63.0433 Y30.3720 F120.00
G01 X63.0518 Y30.3866 F120.00
G01 X63.0593 Y30.4018 F120.00
G01 X63.0656 Y30.4175 F120.00
G01 X63.0707 Y30.4337 F120.00
G01 X63.0734 Y30.4446 F120.00
G01 X63.0765 Y30.4613 F120.00
G01 X63.0784 Y30.4781 F120.00
G01 X63.0790 Y30.4950 F120.00
G01 X63.0790 Y32.1450 F120.00
G01 X63.0784 Y32.1619 F120.00
G01 X63.0773 Y32.1732 F120.00
G01 X63.0746 Y32.1899 F120.00
G01 X63.0721 Y32.2009 F120.00
G01 X63.0691 Y32.2118 F120.00
G01 X63.0636 Y32.2278 F120.00
G01 X63.0569 Y32.2433 F120.00
G01 X63.0518 Y32.2534 F120.00
G01 X63.0433 Y32.2680 F120.00
G01 X63.0370 Y32.2774 F120.00
G01 X63.0303 Y32.2865 F120.00
G01 X63.0194 Y32.2995 F120.00
G01 X63.0076 Y32.3116 F120.00
G01 X62.9992 Y32.3192 F120.00
G01 X62.9860 Y32.3297 F120.00
G01 X62.9768 Y32.3362 F120.00
G01 X62.9672 Y32.3423 F120.00
G01 X62.9524 Y32.3504 F120.00
G01 X62.9422 Y32.3553 F120.00
G01 X62.9265 Y32.3616 F120.00
G01 X62.9103 Y32.3667 F120.00
G01 X62.8939 Y32.3706 F120.00
G01 X62.8772 Y32.3733 F120.00
G01 X62.8603 Y32.3747 F120.00
G01 X62.8490 Y32.3750 F120.00
G01 X62.5873 Y32.3750 F120.00
G01 X62.5873 Y36.1950 F120.00
G01 X62.5840 Y36.2686 F120.00
G01 X62.5832 Y36.2798 F120.00
G01 X62.5736 Y36.3458 F120.00
G01 X67.9688 Y36.3458 F120.00
G01 X67.9688 Y30.8780 F120.00
G01 X67.6800 Y30.8780 F120.00
G01 X67.6687 Y30.8777 F120.00
G01 X67.6575 Y30.8769 F120.00
G01 X67.6463 Y30.8755 F120.00
G01 X67.6296 Y30.8724 F120.00
G01 X67.6132 Y30.8681 F120.00
G01 X67.6025 Y30.8646 F120.00
G01 X67.5920 Y30.8605 F120.00
G01 X67.5766 Y30.8534 F120.00
G01 X67.5618 Y30.8453 F120.00
G01 X67.5476 Y30.8360 F120.00
G01 X67.5341 Y30.8258 F120.00
G01 X67.5255 Y30.8184 F120.00
G01 X67.5134 Y30.8066 F120.00
G01 X67.5022 Y30.7939 F120.00
G01 X67.4920 Y30.7804 F120.00
G01 X67.4827 Y30.7662 F120.00
G01 X67.4746 Y30.7514 F120.00
G01 X67.4675 Y30.7360 F120.00
G01 X67.4616 Y30.7201 F120.00
G01 X67.4583 Y30.7093 F120.00
G01 X67.4544 Y30.6929 F120.00
G01 X67.4517 Y30.6762 F120.00
G01 X67.4503 Y30.6593 F120.00
G01 X67.4500 Y30.6480 F120.00
G01 X67.4500 Y29.3480 F120.00
G01 X67.4506 Y29.3311 F120.00
G01 X67.4525 Y29.3143 F120.00
G01 X67.4544 Y29.3031 F120.00
G01 X67.4569 Y29.2921 F120.00
G01 X67.4599 Y29.2812 F120.00
G01 X67.4634 Y29.2705 F120.00
G01 X67.4697 Y29.2548 F120.00
G01 X67.4746 Y29.2446 F120.00
G01 X67.4799 Y29.2346 F120.00
G01 X67.4888 Y29.2202 F120.00
G01 X67.4953 Y29.2110 F120.00
G01 X67.5022 Y29.2021 F120.00
G01 X67.5134 Y29.1894 F120.00
G01 X67.5214 Y29.1814 F120.00
G01 X67.5298 Y29.1738 F120.00
G01 X67.5385 Y29.1667 F120.00
G01 X67.5476 Y29.1600 F120.00
G01 X67.5618 Y29.1507 F120.00
G01 X67.5766 Y29.1426 F120.00
G01 X67.5868 Y29.1377 F120.00
G01 X67.5972 Y29.1334 F120.00
G01 X67.6132 Y29.1279 F120.00
G01 X67.6241 Y29.1249 F120.00
G01 X67.6351 Y29.1224 F120.00
G01 X67.6518 Y29.1197 F120.00
G01 X67.6631 Y29.1186 F120.00
G01 X67.6744 Y29.1181 F120.00
G01 X69.4800 Y29.1180 F120.00
G01 X69.4969 Y29.1186 F120.00
G01 X69.5137 Y29.1205 F120.00
G01 X69.5249 Y29.1224 F120.00
G01 X69.5359 Y29.1249 F120.00
G01 X69.5521 Y29.1296 F120.00
G01 X69.5680 Y29.1355 F120.00
G01 X69.5834 Y29.1426 F120.00
G01 X69.5982 Y29.1507 F120.00
G01 X69.6124 Y29.1600 F120.00
G01 X69.6259 Y29.1702 F120.00
G01 X69.6386 Y29.1814 F120.00
G01 X69.6504 Y29.1935 F120.00
G01 X69.6613 Y29.2065 F120.00
G01 X69.6712 Y29.2202 F120.00
G01 X69.6801 Y29.2346 F120.00
G01 X69.6879 Y29.2497 F120.00
G01 X69.6946 Y29.2652 F120.00
G01 X69.7001 Y29.2812 F120.00
G01 X69.7044 Y29.2976 F120.00
G01 X69.7075 Y29.3143 F120.00
G01 X69.7094 Y29.3311 F120.00
G01 X69.7100 Y29.3480 F120.00
G01 X69.7100 Y30.6480 F120.00
G01 X69.7094 Y30.6649 F120.00
G01 X69.7083 Y30.6762 F120.00
G01 X69.7066 Y30.6873 F120.00
G01 X69.7031 Y30.7039 F120.00
G01 X69.6984 Y30.7201 F120.00
G01 X69.6925 Y30.7360 F120.00
G01 X69.6879 Y30.7463 F120.00
G01 X69.6828 Y30.7564 F120.00
G01 X69.6743 Y30.7710 F120.00
G01 X69.6680 Y30.7804 F120.00
G01 X69.6578 Y30.7939 F120.00
G01 X69.6466 Y30.8066 F120.00
G01 X69.6386 Y30.8146 F120.00
G01 X69.6302 Y30.8222 F120.00
G01 X69.6170 Y30.8327 F120.00
G01 X69.6078 Y30.8392 F120.00
G01 X69.5982 Y30.8453 F120.00
G01 X69.5834 Y30.8534 F120.00
G01 X69.5732 Y30.8583 F120.00
G01 X69.5628 Y30.8626 F120.00
G01 X69.5468 Y30.8681 F120.00
G01 X69.5359 Y30.8711 F120.00
G01 X69.5193 Y30.8746 F120.00
G01 X69.5025 Y30.8769 F120.00
G01 X69.4856 Y30.8779 F120.00
G01 X69.1912 Y30.8780 F120.00
G01 X69.1912 Y36.3458 F120.00
G01 X69.8508 Y36.3458 F120.00
G01 X73.5568 Y32.6398 F120.00
G01 X73.5568 Y27.0880 F120.00
G01 X73.5571 Y27.0767 F120.00
G01 X73.5598 Y27.0281 F120.00
G01 X73.5675 Y26.9743 F120.00
G01 X73.5710 Y26.9577 F120.00
G01 X73.5801 Y26.9215 F120.00
G01 X73.5831 Y26.9106 F120.00
G01 X73.5880 Y26.8961 F120.00
G01 X73.5880 Y26.1880 F120.00
G01 X73.5883 Y26.1767 F120.00
G01 X73.5908 Y26.1312 F120.00
G01 X73.5972 Y26.0860 F120.00
G01 X73.5991 Y26.0748 F120.00
G01 X73.6016 Y26.0638 F120.00
G01 X73.6100 Y26.0305 F120.00
G01 X73.6147 Y26.0143 F120.00
G01 X73.6321 Y25.9660 F120.00
G01 X73.6539 Y25.9196 F120.00
G01 X73.6621 Y25.9048 F120.00
G01 X73.6797 Y25.8753 F120.00
G01 X73.6857 Y25.8658 F120.00
G01 X73.6922 Y25.8565 F120.00
G01 X73.7197 Y25.8201 F120.00
G01 X73.7539 Y25.7819 F120.00
G01 X73.7661 Y25.7701 F120.00
G01 X73.7915 Y25.7470 F120.00
G01 X73.8001 Y25.7397 F120.00
G01 X73.8090 Y25.7327 F120.00
G01 X73.8458 Y25.7057 F120.00
G01 X73.8848 Y25.6821 F120.00
G01 X73.8946 Y25.6765 F120.00
G01 X73.9357 Y25.6567 F120.00
G01 X73.9460 Y25.6521 F120.00
G01 X73.9566 Y25.6481 F120.00
G01 X73.9996 Y25.6330 F120.00
G01 X74.0493 Y25.6203 F120.00
G01 X74.0660 Y25.6172 F120.00
G01 X74.0999 Y25.6122 F120.00
G01 X74.1112 Y25.6108 F120.00
G01 X74.1224 Y25.6100 F120.00
G01 X74.1680 Y25.6080 F120.00
G01 X74.1793 Y25.6083 F120.00
G01 X74.2248 Y25.6108 F120.00
G01 X74.2700 Y25.6172 F120.00
G01 X74.2812 Y25.6191 F120.00
G01 X74.3255 Y25.6300 F120.00
G01 X74.3364 Y25.6330 F120.00
G01 X74.3471 Y25.6365 F120.00
G01 X74.3900 Y25.6521 F120.00
G01 X74.4313 Y25.6714 F120.00
G01 X74.4414 Y25.6765 F120.00
G01 X74.4512 Y25.6821 F120.00
G01 X74.4902 Y25.7057 F120.00
G01 X74.5270 Y25.7327 F120.00
G01 X74.5359 Y25.7397 F120.00
G01 X74.5699 Y25.7701 F120.00
G01 X74.5781 Y25.7779 F120.00
G01 X74.5859 Y25.7861 F120.00
G01 X74.6163 Y25.8201 F120.00
G01 X74.6471 Y25.8611 F120.00
G01 X74.6563 Y25.8753 F120.00
G01 X74.6795 Y25.9146 F120.00
G01 X74.6993 Y25.9557 F120.00
G01 X74.7039 Y25.9660 F120.00
G01 X74.7079 Y25.9766 F120.00
G01 X74.7230 Y26.0196 F120.00
G01 X74.7344 Y26.0638 F120.00
G01 X74.7369 Y26.0748 F120.00
G01 X74.7388 Y26.0860 F120.00
G01 X74.7452 Y26.1312 F120.00
G01 X74.7477 Y26.1767 F120.00
G01 X74.7480 Y26.1880 F120.00
G01 X74.7480 Y26.8961 F120.00
G01 X74.7529 Y26.9106 F120.00
G01 X74.7559 Y26.9215 F120.00
G01 X74.7650 Y26.9577 F120.00
G01 X74.7685 Y26.9743 F120.00
G01 X74.7762 Y27.0281 F120.00
G01 X74.7791 Y27.0824 F120.00
G01 X74.7792 Y32.8930 F120.00
G01 X74.7789 Y32.9043 F120.00
G01 X74.7762 Y32.9529 F120.00
G01 X74.7694 Y33.0011 F120.00
G01 X74.7674 Y33.0122 F120.00
G01 X74.7650 Y33.0233 F120.00
G01 X74.7529 Y33.0704 F120.00
G01 X74.7367 Y33.1164 F120.00
G01 X74.7327 Y33.1269 F120.00
G01 X74.7121 Y33.1710 F120.00
G01 X74.7070 Y33.1811 F120.00
G01 X74.7015 Y33.1909 F120.00
G01 X74.6762 Y33.2326 F120.00
G01 X74.6474 Y33.2718 F120.00
G01 X74.6405 Y33.2807 F120.00
G01 X74.6331 Y33.2893 F120.00
G01 X74.6002 Y33.3252 F120.00
G01 X73.8259 Y34.0995 F120.00
G01 X73.9132 Y34.1868 F120.00
G01 X76.0560 Y34.1868 F120.00
G01 X76.0561 Y33.8924 F120.00
G01 X76.0571 Y33.8755 F120.00
G01 X76.0594 Y33.8587 F120.00
G01 X76.0629 Y33.8421 F120.00
G01 X76.0676 Y33.8259 F120.00
G01 X76.0714 Y33.8152 F120.00
G01 X76.0781 Y33.7997 F120.00
G01 X76.0859 Y33.7846 F120.00
G01 X76.0917 Y33.7750 F120.00
G01 X76.0980 Y33.7656 F120.00
G01 X76.1082 Y33.7521 F120.00
G01 X76.1194 Y33.7394 F120.00
G01 X76.1274 Y33.7314 F120.00
G01 X76.1358 Y33.7238 F120.00
G01 X76.1490 Y33.7133 F120.00
G01 X76.1582 Y33.7068 F120.00
G01 X76.1678 Y33.7007 F120.00
G01 X76.1826 Y33.6926 F120.00
G01 X76.1928 Y33.6877 F120.00
G01 X76.2032 Y33.6834 F120.00
G01 X76.2192 Y33.6779 F120.00
G01 X76.2356 Y33.6736 F120.00
G01 X76.2523 Y33.6705 F120.00
G01 X76.2691 Y33.6686 F120.00
G01 X76.2860 Y33.6680 F120.00
G01 X77.5860 Y33.6680 F120.00
G01 X77.5973 Y33.6683 F120.00
G01 X77.6085 Y33.6691 F120.00
G01 X77.6253 Y33.6714 F120.00
G01 X77.6364 Y33.6736 F120.00
G01 X77.6528 Y33.6779 F120.00
G01 X77.6635 Y33.6814 F120.00
G01 X77.6740 Y33.6855 F120.00
G01 X77.6843 Y33.6901 F120.00
G01 X77.6994 Y33.6979 F120.00
G01 X77.7138 Y33.7068 F120.00
G01 X77.7275 Y33.7167 F120.00
G01 X77.7405 Y33.7276 F120.00
G01 X77.7526 Y33.7394 F120.00
G01 X77.7602 Y33.7478 F120.00
G01 X77.7707 Y33.7610 F120.00
G01 X77.7803 Y33.7750 F120.00
G01 X77.7861 Y33.7846 F120.00
G01 X77.7939 Y33.7997 F120.00
G01 X77.8006 Y33.8152 F120.00
G01 X77.8061 Y33.8312 F120.00
G01 X77.8104 Y33.8476 F120.00
G01 X77.8135 Y33.8643 F120.00
G01 X77.8154 Y33.8811 F120.00
G01 X77.8159 Y33.8924 F120.00
G01 X77.8160 Y35.6980 F120.00
G01 X77.8157 Y35.7093 F120.00
G01 X77.8149 Y35.7205 F120.00
G01 X77.8135 Y35.7317 F120.00
G01 X77.8104 Y35.7484 F120.00
G01 X77.8077 Y35.7593 F120.00
G01 X77.8026 Y35.7755 F120.00
G01 X77.7985 Y35.7860 F120.00
G01 X77.7939 Y35.7963 F120.00
G01 X77.7861 Y35.8114 F120.00
G01 X77.7803 Y35.8210 F120.00
G01 X77.7707 Y35.8350 F120.00
G01 X77.7638 Y35.8439 F120.00
G01 X77.7564 Y35.8525 F120.00
G01 X77.7446 Y35.8646 F120.00
G01 X77.7362 Y35.8722 F120.00
G01 X77.7275 Y35.8793 F120.00
G01 X77.7184 Y35.8860 F120.00
G01 X77.7042 Y35.8953 F120.00
G01 X77.6894 Y35.9034 F120.00
G01 X77.6740 Y35.9105 F120.00
G01 X77.6581 Y35.9164 F120.00
G01 X77.6419 Y35.9211 F120.00
G01 X77.6253 Y35.9246 F120.00
G01 X77.6085 Y35.9269 F120.00
G01 X77.5916 Y35.9279 F120.00
G01 X76.2860 Y35.9280 F120.00
G01 X76.2747 Y35.9277 F120.00
G01 X76.2635 Y35.9269 F120.00
G01 X76.2523 Y35.9255 F120.00
G01 X76.2411 Y35.9236 F120.00
G01 X76.2247 Y35.9197 F120.00
G01 X76.2139 Y35.9164 F120.00
G01 X76.1980 Y35.9105 F120.00
G01 X76.1826 Y35.9034 F120.00
G01 X76.1678 Y35.8953 F120.00
G01 X76.1582 Y35.8892 F120.00
G01 X76.1445 Y35.8793 F120.00
G01 X76.1358 Y35.8722 F120.00
G01 X76.1274 Y35.8646 F120.00
G01 X76.1156 Y35.8525 F120.00
G01 X76.1082 Y35.8439 F120.00
G01 X76.0980 Y35.8304 F120.00
G01 X76.0887 Y35.8162 F120.00
G01 X76.0806 Y35.8014 F120.00
G01 X76.0735 Y35.7860 F120.00
G01 X76.0694 Y35.7755 F120.00
G01 X76.0659 Y35.7648 F120.00
G01 X76.0629 Y35.7539 F120.00
G01 X76.0594 Y35.7373 F120.00
G01 X76.0571 Y35.7205 F120.00
G01 X76.0561 Y35.7036 F120.00
G01 X76.0560 Y35.4092 F120.00
G01 X73.6600 Y35.4092 F120.00
G01 X73.6114 Y35.4071 F120.00
G01 X73.6001 Y35.4062 F120.00
G01 X73.5889 Y35.4049 F120.00
G01 X73.5408 Y35.3974 F120.00
G01 X73.4935 Y35.3859 F120.00
G01 X73.4772 Y35.3812 F120.00
G01 X73.4313 Y35.3648 F120.00
G01 X73.4158 Y35.3581 F120.00
G01 X73.3719 Y35.3370 F120.00
G01 X73.3300 Y35.3122 F120.00
G01 X73.3158 Y35.3030 F120.00
G01 X73.2723 Y35.2705 F120.00
G01 X73.2319 Y35.2341 F120.00
G01 X72.9615 Y34.9639 F120.00
G01 X70.5321 Y37.3931 F120.00
G01 X70.4917 Y37.4295 F120.00
G01 X70.4528 Y37.4587 F120.00
G01 X70.4436 Y37.4652 F120.00
G01 X70.4340 Y37.4712 F120.00
G01 X70.4019 Y37.4905 F120.00
G01 X70.3871 Y37.4986 F120.00
G01 X70.3379 Y37.5217 F120.00
G01 X70.2868 Y37.5402 F120.00
G01 X70.2705 Y37.5449 F120.00
G01 X70.2343 Y37.5540 F120.00
G01 X70.2232 Y37.5564 F120.00
G01 X70.2121 Y37.5584 F120.00
G01 X70.1639 Y37.5652 F120.00
G01 X70.1153 Y37.5679 F120.00
G01 X70.1040 Y37.5682 F120.00
G01 X61.5726 Y37.5682 F120.00
G01 X60.5559 Y38.5849 F120.00
G01 X60.5477 Y38.5927 F120.00
G01 X60.4930 Y38.6419 F120.00
G01 X60.4340 Y38.6860 F120.00
G01 X60.4247 Y38.6925 F120.00
G01 X60.3617 Y38.7306 F120.00
G01 X60.3519 Y38.7361 F120.00
G01 X60.3418 Y38.7412 F120.00
G01 X60.2751 Y38.7724 F120.00
G01 X60.2059 Y38.7975 F120.00
G01 X60.1952 Y38.8011 F120.00
G01 X60.1238 Y38.8192 F120.00
G01 X60.1073 Y38.8227 F120.00
G01 X60.0400 Y38.8328 F120.00
G01 X60.0288 Y38.8342 F120.00
G01 X60.0176 Y38.8350 F120.00
G01 X59.9440 Y38.8383 F120.00
G01 X48.7442 Y38.8383 F120.00
G01 X48.7442 Y41.0218 F120.00
G01 X50.6722 Y42.9498 F120.00
G01 X98.0448 Y42.9498 F120.00
G01 X99.0838 Y41.9108 F120.00
G01 X99.0838 Y36.4918 F120.00
G01 X99.0666 Y36.4856 F120.00
G01 X99.0562 Y36.4813 F120.00
G01 X98.9784 Y36.4445 F120.00
G01 X98.9636 Y36.4363 F120.00
G01 X98.8899 Y36.3918 F120.00
G01 X98.8806 Y36.3853 F120.00
G01 X98.8117 Y36.3338 F120.00
G01 X98.7477 Y36.2762 F120.00
G01 X98.7396 Y36.2684 F120.00
G01 X98.7318 Y36.2603 F120.00
G01 X98.6742 Y36.1963 F120.00
G01 X98.6227 Y36.1274 F120.00
G01 X98.6162 Y36.1181 F120.00
G01 X98.6101 Y36.1086 F120.00
G01 X98.5717 Y36.0444 F120.00
G01 X98.5661 Y36.0346 F120.00
G01 X98.5611 Y36.0245 F120.00
G01 X98.5245 Y35.9466 F120.00
G01 X98.4953 Y35.8657 F120.00
G01 X98.4901 Y35.8495 F120.00
G01 X98.4705 Y35.7715 F120.00
G01 X98.4681 Y35.7605 F120.00
G01 X98.4661 Y35.7494 F120.00
G01 X98.4538 Y35.6642 F120.00
G01 X98.4493 Y35.5783 F120.00
G01 X98.4490 Y35.5670 F120.00
G01 X98.4493 Y35.5557 F120.00
G01 X98.4538 Y35.4698 F120.00
G01 X98.4661 Y35.3846 F120.00
G01 X98.4681 Y35.3735 F120.00
G01 X98.4705 Y35.3625 F120.00
G01 X98.4917 Y35.2790 F120.00
G01 X98.5204 Y35.1979 F120.00
G01 X98.5245 Y35.1874 F120.00
G01 X98.5291 Y35.1771 F120.00
G01 X98.5661 Y35.0994 F120.00
G01 X98.6101 Y35.0254 F120.00
G01 X98.6162 Y35.0159 F120.00
G01 X98.6227 Y35.0066 F120.00
G01 X98.6672 Y34.9466 F120.00
G01 X98.6742 Y34.9377 F120.00
G01 X98.6815 Y34.9291 F120.00
G01 X98.7318 Y34.8737 F120.00
G01 X98.7396 Y34.8656 F120.00
G01 X98.7477 Y34.8578 F120.00
G01 X98.8117 Y34.8002 F120.00
G01 X98.8806 Y34.7487 F120.00
G01 X98.8899 Y34.7422 F120.00
G01 X98.8994 Y34.7361 F120.00
G01 X98.9734 Y34.6921 F120.00
G01 X99.0511 Y34.6551 F120.00
G01 X99.0614 Y34.6505 F120.00
G01 X99.0719 Y34.6464 F120.00
G01 X99.1423 Y34.6213 F120.00
G01 X99.1585 Y34.6161 F120.00
G01 X99.2365 Y34.5965 F120.00
G01 X99.2475 Y34.5941 F120.00
G01 X99.3326 Y34.5812 F120.00
G01 X99.3438 Y34.5798 F120.00
G01 X99.3550 Y34.5789 F120.00
G01 X99.4410 Y34.5750 F120.00
G01 X99.9490 Y34.5750 F120.00
G01 X100.0350 Y34.5789 F120.00
G01 X100.0462 Y34.5798 F120.00
G01 X100.1314 Y34.5921 F120.00
G01 X100.1425 Y34.5941 F120.00
G01 X100.1535 Y34.5965 F120.00
G01 X100.2370 Y34.6177 F120.00
G01 X100.3181 Y34.6464 F120.00
G01 X100.3286 Y34.6505 F120.00
G01 X100.3389 Y34.6551 F120.00
G01 X100.4065 Y34.6871 F120.00
G01 X100.4166 Y34.6921 F120.00
G01 X100.4264 Y34.6977 F120.00
G01 X100.5001 Y34.7422 F120.00
G01 X100.5094 Y34.7487 F120.00
G01 X100.5783 Y34.8002 F120.00
G01 X100.5869 Y34.8075 F120.00
G01 X100.6504 Y34.8656 F120.00
G01 X100.7085 Y34.9291 F120.00
G01 X100.7158 Y34.9377 F120.00
G01 X100.7244 Y34.9488 F120.00
G01 X103.8868 Y34.9488 F120.00
G01 X104.6718 Y34.1638 F120.00
G01 X104.6718 Y21.9702 F120.00
G01 X103.0048 Y20.3032 F120.00
G01 X100.7296 Y20.3032 F120.00
G01 X100.7194 Y20.3169 F120.00
G01 X100.7122 Y20.3256 F120.00
G01 X100.6544 Y20.3894 F120.00
G01 X100.6423 Y20.4012 F120.00
G01 X100.5826 Y20.4552 F120.00
G01 X100.5694 Y20.4658 F120.00
G01 X100.5001 Y20.5168 F120.00
G01 X100.4906 Y20.5229 F120.00
G01 X100.4166 Y20.5669 F120.00
G01 X100.3389 Y20.6039 F120.00
G01 X100.3286 Y20.6085 F120.00
G01 X100.3181 Y20.6126 F120.00
G01 X100.2370 Y20.6413 F120.00
G01 X100.1535 Y20.6625 F120.00
G01 X100.1425 Y20.6649 F120.00
G01 X100.0574 Y20.6778 F120.00
G01 X100.0462 Y20.6792 F120.00
G01 X100.0350 Y20.6801 F120.00
G01 X99.9490 Y20.6840 F120.00
G01 X99.4410 Y20.6840 F120.00
G01 X99.3550 Y20.6801 F120.00
G01 X99.3438 Y20.6792 F120.00
G01 X99.3326 Y20.6778 F120.00
G01 X99.2475 Y20.6649 F120.00
G01 X99.1639 Y20.6443 F120.00
G01 X99.1530 Y20.6413 F120.00
G01 X99.1423 Y20.6377 F120.00
G01 X99.0719 Y20.6126 F120.00
G01 X99.0614 Y20.6085 F120.00
G01 X99.0511 Y20.6039 F120.00
G01 X98.9734 Y20.5669 F120.00
G01 X98.8994 Y20.5229 F120.00
G01 X98.8899 Y20.5168 F120.00
G01 X98.8806 Y20.5103 F120.00
G01 X98.8206 Y20.4658 F120.00
G01 X98.8117 Y20.4588 F120.00
G01 X98.8031 Y20.4515 F120.00
G01 X98.7396 Y20.3934 F120.00
G01 X98.6815 Y20.3299 F120.00
G01 X98.6742 Y20.3213 F120.00
G01 X98.6227 Y20.2524 F120.00
G01 X98.6162 Y20.2431 F120.00
G01 X98.6101 Y20.2336 F120.00
G01 X98.5661 Y20.1596 F120.00
G01 X98.5291 Y20.0819 F120.00
G01 X98.5245 Y20.0716 F120.00
G01 X98.4953 Y19.9907 F120.00
G01 X98.4917 Y19.9800 F120.00
G01 X98.4887 Y19.9691 F120.00
G01 X98.4681 Y19.8855 F120.00
G01 X98.4552 Y19.8004 F120.00
G01 X98.4538 Y19.7892 F120.00
G01 X98.4529 Y19.7780 F120.00
G01 X98.4490 Y19.6920 F120.00
G01 X98.4529 Y19.6060 F120.00
G01 X98.4538 Y19.5948 F120.00
G01 X98.4552 Y19.5836 F120.00
G01 X98.4681 Y19.4985 F120.00
G01 X98.4705 Y19.4875 F120.00
G01 X98.4917 Y19.4040 F120.00
G01 X98.5204 Y19.3229 F120.00
G01 X98.5245 Y19.3124 F120.00
G01 X98.5291 Y19.3021 F120.00
G01 X98.5661 Y19.2244 F120.00
G01 X98.6101 Y19.1504 F120.00
G01 X98.6162 Y19.1409 F120.00
G01 X98.6227 Y19.1316 F120.00
G01 X98.6742 Y19.0627 F120.00
G01 X98.6815 Y19.0541 F120.00
G01 X98.7396 Y18.9906 F120.00
G01 X98.8031 Y18.9325 F120.00
G01 X98.8117 Y18.9252 F120.00
G01 X98.8806 Y18.8737 F120.00
G01 X98.8899 Y18.8672 F120.00
G01 X98.8994 Y18.8611 F120.00
G01 X98.9734 Y18.8171 F120.00
G01 X99.0511 Y18.7801 F120.00
G01 X99.0614 Y18.7755 F120.00
G01 X99.1423 Y18.7463 F120.00
G01 X99.1530 Y18.7427 F120.00
G01 X99.1639 Y18.7397 F120.00
G01 X99.2365 Y18.7215 F120.00
G01 X99.2475 Y18.7191 F120.00
G01 X99.2586 Y18.7171 F120.00
G01 X99.3438 Y18.7048 F120.00
G01 X99.3550 Y18.7039 F120.00
G01 X99.4354 Y18.7001 F120.00
G01 X99.9490 Y18.7000 F120.00
G01 X100.0350 Y18.7039 F120.00
G01 X100.0462 Y18.7048 F120.00
G01 X100.1314 Y18.7171 F120.00
G01 X100.1425 Y18.7191 F120.00
G01 X100.1535 Y18.7215 F120.00
G01 X100.2370 Y18.7427 F120.00
G01 X100.3181 Y18.7714 F120.00
G01 X100.3286 Y18.7755 F120.00
G01 X100.3389 Y18.7801 F120.00
G01 X100.4166 Y18.8171 F120.00
G01 X100.4264 Y18.8227 F120.00
G01 X100.4954 Y18.8641 F120.00
G01 X100.5094 Y18.8737 F120.00
G01 X100.5783 Y18.9252 F120.00
G01 X100.6423 Y18.9828 F120.00
G01 X100.6504 Y18.9906 F120.00
G01 X100.6582 Y18.9987 F120.00
G01 X100.7085 Y19.0541 F120.00
G01 X100.7194 Y19.0671 F120.00
G01 X100.7296 Y19.0808 F120.00
G01 X103.2636 Y19.0809 F120.00
G01 X103.3179 Y19.0838 F120.00
G01 X103.3661 Y19.0906 F120.00
G01 X103.3772 Y19.0926 F120.00
G01 X103.3883 Y19.0950 F120.00
G01 X103.4354 Y19.1071 F120.00
G01 X103.4814 Y19.1233 F120.00
G01 X103.4919 Y19.1273 F120.00
G01 X103.5360 Y19.1479 F120.00
G01 X103.5461 Y19.1530 F120.00
G01 X103.5559 Y19.1585 F120.00
G01 X103.5976 Y19.1838 F120.00
G01 X103.6368 Y19.2126 F120.00
G01 X103.6457 Y19.2195 F120.00
G01 X103.6861 Y19.2559 F120.00
G01 X105.7152 Y21.2848 F120.00
G01 X105.7481 Y21.3207 F120.00
G01 X105.7555 Y21.3293 F120.00
G01 X105.7624 Y21.3382 F120.00
G01 X105.7912 Y21.3774 F120.00
G01 X105.8165 Y21.4191 F120.00
G01 X105.8220 Y21.4289 F120.00
G01 X105.8271 Y21.4390 F120.00
G01 X105.8477 Y21.4831 F120.00
G01 X105.8643 Y21.5289 F120.00
G01 X105.8679 Y21.5396 F120.00
G01 X105.8800 Y21.5867 F120.00
G01 X105.8824 Y21.5978 F120.00
G01 X105.8844 Y21.6089 F120.00
G01 X105.8912 Y21.6571 F120.00
G01 X105.8939 Y21.7057 F120.00
G01 X105.8942 Y21.7170 F120.00
G01 X105.8942 Y34.4170 F120.00
G01 X105.8939 Y34.4283 F120.00
G01 X105.8912 Y34.4769 F120.00
G01 X105.8844 Y34.5251 F120.00
G01 X105.8824 Y34.5362 F120.00
G01 X105.8800 Y34.5473 F120.00
G01 X105.8679 Y34.5944 F120.00
G01 X105.8517 Y34.6404 F120.00
G01 X105.8477 Y34.6509 F120.00
G01 X105.8431 Y34.6612 F120.00
G01 X105.8220 Y34.7051 F120.00
G01 X105.7972 Y34.7470 F120.00
G01 X105.7912 Y34.7566 F120.00
G01 X105.7847 Y34.7658 F120.00
G01 X105.7555 Y34.8047 F120.00
G01 X105.7191 Y34.8451 F120.00
G01 X104.5681 Y35.9961 F120.00
G01 X104.5363 Y36.0251 F120.00
G01 X104.5233 Y36.0360 F120.00
G01 X104.4842 Y36.0650 F120.00
G01 X104.4700 Y36.0742 F120.00
G01 X104.4331 Y36.0963 F120.00
G01 X104.4180 Y36.1041 F120.00
G01 X104.3739 Y36.1247 F120.00
G01 X104.3281 Y36.1413 F120.00
G01 X104.3120 Y36.1464 F120.00
G01 X104.2703 Y36.1570 F120.00
G01 X104.2592 Y36.1594 F120.00
G01 X104.2481 Y36.1614 F120.00
G01 X104.1999 Y36.1682 F120.00
G01 X104.1886 Y36.1691 F120.00
G01 X104.1400 Y36.1712 F120.00
G01 X100.7348 Y36.1712 F120.00
G01 X100.7194 Y36.1919 F120.00
G01 X100.7122 Y36.2006 F120.00
G01 X100.6544 Y36.2644 F120.00
G01 X100.6423 Y36.2762 F120.00
G01 X100.5869 Y36.3265 F120.00
G01 X100.5783 Y36.3338 F120.00
G01 X100.5694 Y36.3408 F120.00
G01 X100.5001 Y36.3918 F120.00
G01 X100.4906 Y36.3979 F120.00
G01 X100.4216 Y36.4391 F120.00
G01 X100.4065 Y36.4469 F120.00
G01 X100.3338 Y36.4813 F120.00
G01 X100.3234 Y36.4856 F120.00
G01 X100.3062 Y36.4918 F120.00
G01 X100.3062 Y42.1640 F120.00
G01 X100.3059 Y42.1753 F120.00
G01 X100.3032 Y42.2239 F120.00
G01 X100.2964 Y42.2721 F120.00
G01 X100.2944 Y42.2832 F120.00
G01 X100.2920 Y42.2943 F120.00
G01 X100.2799 Y42.3414 F120.00
G01 X100.2637 Y42.3874 F120.00
G01 X100.2597 Y42.3979 F120.00
G01 X100.2551 Y42.4082 F120.00
G01 X100.2340 Y42.4521 F120.00
G01 X100.2092 Y42.4940 F120.00
G01 X100.2032 Y42.5036 F120.00
G01 X100.1967 Y42.5128 F120.00
G01 X100.1675 Y42.5517 F120.00
G01 X100.1350 Y42.5880 F120.00
G01 X100.1272 Y42.5962 F120.00
G01 X98.7302 Y43.9932 F120.00
G01 X98.6943 Y44.0261 F120.00
G01 X98.6857 Y44.0335 F120.00
G01 X98.6768 Y44.0404 F120.00
G01 X98.6376 Y44.0692 F120.00
G01 X98.5959 Y44.0945 F120.00
G01 X98.5861 Y44.1000 F120.00
G01 X98.5760 Y44.1051 F120.00
G01 X98.5319 Y44.1257 F120.00
G01 X98.4861 Y44.1423 F120.00
G01 X98.4754 Y44.1459 F120.00
G01 X98.4645 Y44.1489 F120.00
G01 X98.4283 Y44.1580 F120.00
G01 X98.4117 Y44.1615 F120.00
G01 X98.3579 Y44.1692 F120.00
G01 X98.3093 Y44.1719 F120.00
G01 X98.2980 Y44.1722 F120.00
G01 X50.4190 Y44.1722 F120.00
G01 X50.4077 Y44.1719 F120.00
G01 X50.3591 Y44.1692 F120.00
G01 X50.3109 Y44.1624 F120.00
G01 X50.2998 Y44.1604 F120.00
G01 X50.2887 Y44.1580 F120.00
G01 X50.2416 Y44.1459 F120.00
G01 X50.1956 Y44.1297 F120.00
G01 X50.1851 Y44.1257 F120.00
G01 X50.1748 Y44.1211 F120.00
G01 X50.1309 Y44.1000 F120.00
G01 X50.0890 Y44.0752 F120.00
G01 X50.0794 Y44.0692 F120.00
G01 X50.0702 Y44.0627 F120.00
G01 X50.0313 Y44.0335 F120.00
G01 X49.9909 Y43.9971 F120.00
G01 X47.7008 Y41.7072 F120.00
G01 X47.6679 Y41.6713 F120.00
G01 X47.6605 Y41.6627 F120.00
G01 X47.6536 Y41.6538 F120.00
G01 X47.6248 Y41.6146 F120.00
G01 X47.5995 Y41.5729 F120.00
G01 X47.5940 Y41.5631 F120.00
G01 X47.5889 Y41.5530 F120.00
G01 X47.5683 Y41.5089 F120.00
G01 X47.5517 Y41.4631 F120.00
G01 X47.5481 Y41.4524 F120.00
G01 X47.5451 Y41.4415 F120.00
G01 X47.5336 Y41.3942 F120.00
G01 X47.5261 Y41.3461 F120.00
G01 X47.5243 Y41.3293 F120.00
G01 X47.5219 Y41.2806 F120.00
G01 X47.5218 Y38.8383 F120.00
G01 X26.5430 Y38.8383 F120.00
G01 X26.4694 Y38.8350 F120.00
G01 X26.4582 Y38.8342 F120.00
G01 X26.3797 Y38.8227 F120.00
G01 X26.3632 Y38.8192 F120.00
G01 X26.3027 Y38.8041 F120.00
G01 X26.2918 Y38.8011 F120.00
G01 X26.2811 Y38.7975 F120.00
G01 X26.2119 Y38.7724 F120.00
G01 X26.2015 Y38.7679 F120.00
G01 X26.1351 Y38.7361 F120.00
G01 X26.0718 Y38.6985 F120.00
G01 X26.0623 Y38.6925 F120.00
G01 X26.0530 Y38.6860 F120.00
G01 X25.9940 Y38.6419 F120.00
G01 X25.9352 Y38.5888 F120.00
G01 X24.6572 Y37.3108 F120.00
G01 X24.6041 Y37.2520 F120.00
G01 X24.5600 Y37.1930 F120.00
G01 X24.5535 Y37.1837 F120.00
G01 X24.5154 Y37.1207 F120.00
G01 X24.5099 Y37.1109 F120.00
G01 X24.4781 Y37.0445 F120.00
G01 X24.4715 Y37.0289 F120.00
G01 X24.4449 Y36.9542 F120.00
G01 X24.4419 Y36.9433 F120.00
G01 X24.4243 Y36.8718 F120.00
G01 X24.4132 Y36.7990 F120.00
G01 X24.4118 Y36.7878 F120.00
G01 X24.4078 Y36.7086 F120.00
G01 X24.4077 Y32.7560 F120.00
G01 X24.2730 Y32.7560 F120.00
G01 X24.2617 Y32.7557 F120.00
G01 X24.2448 Y32.7543 F120.00
G01 X24.2337 Y32.7526 F120.00
G01 X24.2226 Y32.7504 F120.00
G01 X24.2062 Y32.7461 F120.00
G01 X24.1955 Y32.7426 F120.00
G01 X24.1850 Y32.7385 F120.00
G01 X24.1747 Y32.7339 F120.00
G01 X24.1646 Y32.7288 F120.00
G01 X24.1548 Y32.7233 F120.00
G01 X24.1452 Y32.7172 F120.00
G01 X24.1315 Y32.7073 F120.00
G01 X24.1228 Y32.7002 F120.00
G01 X24.1144 Y32.6926 F120.00
G01 X24.1026 Y32.6805 F120.00
G01 X24.0952 Y32.6719 F120.00
G01 X24.0883 Y32.6630 F120.00
G01 X24.0818 Y32.6538 F120.00
G01 X24.0757 Y32.6442 F120.00
G01 X24.0676 Y32.6294 F120.00
G01 X24.0627 Y32.6192 F120.00
G01 X24.0564 Y32.6035 F120.00
G01 X24.0529 Y32.5928 F120.00
G01 X24.0499 Y32.5819 F120.00
G01 X24.0466 Y32.5663 F120.00
G01 X10.1110 Y32.5663 F120.00
G01 X10.0374 Y32.5630 F120.00
G01 X10.0262 Y32.5622 F120.00
G01 X10.0150 Y32.5608 F120.00
G01 X9.9422 Y32.5497 F120.00
G01 X9.8707 Y32.5321 F120.00
G01 X9.8598 Y32.5291 F120.00
G01 X9.7904 Y32.5045 F120.00
G01 X9.7799 Y32.5004 F120.00
G01 X9.7695 Y32.4959 F120.00
G01 X9.7031 Y32.4641 F120.00
G01 X9.6350 Y32.4236 F120.00
G01 X9.6210 Y32.4140 F120.00
G01 X9.5620 Y32.3699 F120.00
G01 X9.5073 Y32.3207 F120.00
G01 X9.4991 Y32.3129 F120.00
G01 X5.8612 Y28.6748 F120.00
G01 X5.8081 Y28.6160 F120.00
G01 X5.7640 Y28.5570 F120.00
G01 X5.7575 Y28.5477 F120.00
G01 X5.7515 Y28.5382 F120.00
G01 X5.7139 Y28.4749 F120.00
G01 X5.6821 Y28.4085 F120.00
G01 X5.6776 Y28.3981 F120.00
G01 X5.6735 Y28.3876 F120.00
G01 X5.6489 Y28.3182 F120.00
G01 X5.6308 Y28.2468 F120.00
G01 X5.6283 Y28.2358 F120.00
G01 X5.6264 Y28.2247 F120.00
G01 X5.6158 Y28.1518 F120.00
G01 X5.6150 Y28.1406 F120.00
G01 X5.6117 Y28.0670 F120.00
G01 X5.6117 Y15.8750 F120.00
G01 X5.6120 Y15.8637 F120.00
G00 Z2.0000
G00 X5.7019 Y15.8681
G01 F60.00
G01 Z0.0000
G01 F120.00
G01 X5.7054 Y15.7990 F120.00
G01 X5.7166 Y15.7237 F120.00
G01 X5.7351 Y15.6499 F120.00
G01 X5.7607 Y15.5783 F120.00
G01 X5.7932 Y15.5095 F120.00
G01 X5.8323 Y15.4443 F120.00
G01 X5.8777 Y15.3831 F120.00
G01 X5.9264 Y15.3292 F120.00
G01 X7.6578 Y13.5978 F120.00
G01 X7.7089 Y13.5512 F120.00
G01 X7.7196 Y13.5424 F120.00
G01 X7.7696 Y13.5053 F120.00
G01 X7.7811 Y13.4977 F120.00
G01 X7.8405 Y13.4622 F120.00
G01 X7.9093 Y13.4297 F120.00
G01 X7.9744 Y13.4062 F120.00
G01 X7.9876 Y13.4022 F120.00
G01 X8.0547 Y13.3856 F120.00
G01 X8.1266 Y13.3748 F120.00
G01 X8.1369 Y13.3739 F120.00
G01 X8.2060 Y13.3707 F120.00
G01 X14.3540 Y13.3707 F120.00
G01 X14.3540 Y13.3176 F120.00
G01 X14.3547 Y13.3073 F120.00
G01 X14.3561 Y13.2971 F120.00
G01 X14.3591 Y13.2837 F120.00
G01 X14.3611 Y13.2771 F120.00
G01 X14.3647 Y13.2674 F120.00
G01 X14.3705 Y13.2550 F120.00
G01 X14.3776 Y13.2432 F120.00
G01 X14.3836 Y13.2349 F120.00
G01 X14.3880 Y13.2296 F120.00
G01 X14.3975 Y13.2196 F120.00
G01 X14.4079 Y13.2106 F120.00
G01 X14.4162 Y13.2046 F120.00
G01 X14.4220 Y13.2009 F120.00
G01 X14.4341 Y13.1944 F120.00
G01 X14.4404 Y13.1917 F120.00
G01 X14.4501 Y13.1881 F120.00
G01 X14.4567 Y13.1861 F120.00
G01 X14.4667 Y13.1837 F120.00
G01 X14.4803 Y13.1817 F120.00
G01 X14.4940 Y13.1810 F120.00
G01 X16.4940 Y13.1810 F120.00
G01 X16.5043 Y13.1814 F120.00
G01 X16.5111 Y13.1821 F120.00
G01 X16.5213 Y13.1837 F120.00
G01 X16.5280 Y13.1852 F120.00
G01 X16.5379 Y13.1881 F120.00
G01 X16.5444 Y13.1904 F120.00
G01 X16.5569 Y13.1959 F120.00
G01 X16.5630 Y13.1992 F120.00
G01 X16.5718 Y13.2046 F120.00
G01 X16.5801 Y13.2106 F120.00
G01 X16.5854 Y13.2150 F120.00
G01 X16.5954 Y13.2245 F120.00
G01 X16.6022 Y13.2322 F120.00
G01 X16.6064 Y13.2376 F120.00
G01 X16.6123 Y13.2461 F120.00
G01 X16.6158 Y13.2520 F120.00
G01 X16.6220 Y13.2643 F120.00
G01 X16.6269 Y13.2771 F120.00
G01 X16.6289 Y13.2837 F120.00
G01 X16.6313 Y13.2937 F120.00
G01 X16.6329 Y13.3039 F120.00
G01 X16.6340 Y13.3176 F120.00
G01 X16.6340 Y13.3707 F120.00
G01 X25.1950 Y13.3707 F120.00
G01 X25.2710 Y13.3744 F120.00
G01 X25.3395 Y13.3844 F120.00
G01 X25.3496 Y13.3863 F120.00
G01 X25.4134 Y13.4022 F120.00
G01 X25.4233 Y13.4051 F120.00
G01 X25.4885 Y13.4284 F120.00
G01 X25.5096 Y13.4380 F120.00
G01 X26.4339 Y13.4382 F120.00
G01 X26.4475 Y13.4395 F120.00
G01 X26.4610 Y13.4422 F120.00
G01 X26.4742 Y13.4462 F120.00
G01 X26.4837 Y13.4500 F120.00
G01 X26.4960 Y13.4562 F120.00
G01 X26.5048 Y13.4616 F120.00
G01 X26.5158 Y13.4698 F120.00
G01 X26.5260 Y13.4790 F120.00
G01 X26.5352 Y13.4892 F120.00
G01 X26.5434 Y13.5002 F120.00
G01 X26.5488 Y13.5090 F120.00
G01 X26.5550 Y13.5213 F120.00
G01 X26.5599 Y13.5341 F120.00
G01 X26.5636 Y13.5473 F120.00
G01 X26.5659 Y13.5609 F120.00
G01 X26.5670 Y13.5746 F120.00
G01 X26.5668 Y15.3849 F120.00
G01 X26.5655 Y15.3985 F120.00
G01 X26.5628 Y15.4120 F120.00
G01 X26.5588 Y15.4252 F120.00
G01 X26.5550 Y15.4347 F120.00
G01 X26.5488 Y15.4470 F120.00
G01 X26.5415 Y15.4586 F120.00
G01 X26.5352 Y15.4668 F120.00
G01 X26.5260 Y15.4770 F120.00
G01 X26.5158 Y15.4862 F120.00
G01 X26.5076 Y15.4925 F120.00
G01 X26.4960 Y15.4998 F120.00
G01 X26.4869 Y15.5046 F120.00
G01 X26.4742 Y15.5098 F120.00
G01 X26.4643 Y15.5129 F120.00
G01 X26.4509 Y15.5159 F120.00
G01 X26.4373 Y15.5176 F120.00
G01 X26.4270 Y15.5180 F120.00
G01 X24.6270 Y15.5180 F120.00
G01 X24.6167 Y15.5176 F120.00
G01 X24.6065 Y15.5165 F120.00
G01 X24.5963 Y15.5146 F120.00
G01 X24.5864 Y15.5120 F120.00
G01 X24.5766 Y15.5086 F120.00
G01 X24.5671 Y15.5046 F120.00
G01 X24.5580 Y15.4998 F120.00
G01 X24.5492 Y15.4944 F120.00
G01 X24.5409 Y15.4884 F120.00
G01 X24.5330 Y15.4817 F120.00
G01 X24.5280 Y15.4770 F120.00
G01 X24.5210 Y15.4694 F120.00
G01 X24.5146 Y15.4614 F120.00
G01 X24.5106 Y15.4558 F120.00
G01 X24.5052 Y15.4470 F120.00
G01 X24.5004 Y15.4379 F120.00
G01 X24.4964 Y15.4284 F120.00
G01 X24.4930 Y15.4186 F120.00
G01 X24.4904 Y15.4087 F120.00
G01 X24.4891 Y15.4019 F120.00
G01 X24.4877 Y15.3917 F120.00
G01 X24.4870 Y15.3780 F120.00
G01 X24.4870 Y14.9213 F120.00
G01 X16.6340 Y14.9213 F120.00
G01 X16.6340 Y14.9744 F120.00
G01 X16.6329 Y14.9881 F120.00
G01 X16.6313 Y14.9983 F120.00
G01 X16.6280 Y15.0116 F120.00
G01 X16.6258 Y15.0182 F120.00
G01 X16.6220 Y15.0277 F120.00
G01 X16.6175 Y15.0370 F120.00
G01 X16.6141 Y15.0430 F120.00
G01 X16.6064 Y15.0544 F120.00
G01 X16.6022 Y15.0598 F120.00
G01 X16.5954 Y15.0675 F120.00
G01 X16.5854 Y15.0770 F120.00
G01 X16.5801 Y15.0814 F120.00
G01 X16.5718 Y15.0874 F120.00
G01 X16.5660 Y15.0911 F120.00
G01 X16.5569 Y15.0961 F120.00
G01 X16.5507 Y15.0990 F120.00
G01 X16.5412 Y15.1028 F120.00
G01 X16.5280 Y15.1068 F120.00
G01 X16.5179 Y15.1089 F120.00
G01 X16.5111 Y15.1099 F120.00
G01 X16.5043 Y15.1106 F120.00
G01 X16.4940 Y15.1110 F120.00
G01 X14.4940 Y15.1110 F120.00
G01 X14.4803 Y15.1103 F120.00
G01 X14.4667 Y15.1083 F120.00
G01 X14.4600 Y15.1068 F120.00
G01 X14.4501 Y15.1039 F120.00
G01 X14.4373 Y15.0990 F120.00
G01 X14.4311 Y15.0961 F120.00
G01 X14.4220 Y15.0911 F120.00
G01 X14.4134 Y15.0855 F120.00
G01 X14.4079 Y15.0814 F120.00
G01 X14.3975 Y15.0724 F120.00
G01 X14.3880 Y15.0624 F120.00
G01 X14.3836 Y15.0571 F120.00
G01 X14.3776 Y15.0488 F120.00
G01 X14.3722 Y15.0400 F120.00
G01 X14.3689 Y15.0339 F120.00
G01 X14.3634 Y15.0214 F120.00
G01 X14.3591 Y15.0083 F120.00
G01 X14.3561 Y14.9949 F120.00
G01 X14.3547 Y14.9847 F120.00
G01 X14.3540 Y14.9744 F120.00
G01 X14.3540 Y14.9213 F120.00
G01 X8.5271 Y14.9213 F120.00
G01 X7.2523 Y16.1961 F120.00
G01 X7.2523 Y27.7459 F120.00
G01 X10.4321 Y30.9257 F120.00
G01 X24.1330 Y30.9257 F120.00
G01 X24.1330 Y30.8726 F120.00
G01 X24.1337 Y30.8623 F120.00
G01 X24.1351 Y30.8521 F120.00
G01 X24.1381 Y30.8387 F120.00
G01 X24.1424 Y30.8256 F120.00
G01 X24.1479 Y30.8131 F120.00
G01 X24.1529 Y30.8040 F120.00
G01 X24.1566 Y30.7982 F120.00
G01 X24.1626 Y30.7899 F120.00
G01 X24.1670 Y30.7846 F120.00
G01 X24.1765 Y30.7746 F120.00
G01 X24.1816 Y30.7700 F120.00
G01 X24.1896 Y30.7636 F120.00
G01 X24.2010 Y30.7559 F120.00
G01 X24.2131 Y30.7494 F120.00
G01 X24.2226 Y30.7454 F120.00
G01 X24.2291 Y30.7431 F120.00
G01 X24.2357 Y30.7411 F120.00
G01 X24.2457 Y30.7387 F120.00
G01 X24.2525 Y30.7375 F120.00
G01 X24.2627 Y30.7364 F120.00
G01 X24.2730 Y30.7360 F120.00
G01 X26.2730 Y30.7360 F120.00
G01 X26.2867 Y30.7367 F120.00
G01 X26.2935 Y30.7375 F120.00
G01 X26.3037 Y30.7394 F120.00
G01 X26.3169 Y30.7431 F120.00
G01 X26.3266 Y30.7467 F120.00
G01 X26.3329 Y30.7494 F120.00
G01 X26.3420 Y30.7542 F120.00
G01 X26.3508 Y30.7596 F120.00
G01 X26.3591 Y30.7656 F120.00
G01 X26.3644 Y30.7700 F120.00
G01 X26.3695 Y30.7746 F120.00
G01 X26.3767 Y30.7820 F120.00
G01 X26.3834 Y30.7899 F120.00
G01 X26.3894 Y30.7982 F120.00
G01 X26.3948 Y30.8070 F120.00
G01 X26.3981 Y30.8131 F120.00
G01 X26.4023 Y30.8224 F120.00
G01 X26.4059 Y30.8321 F120.00
G01 X26.4088 Y30.8420 F120.00
G01 X26.4109 Y30.8521 F120.00
G01 X26.4119 Y30.8589 F120.00
G01 X26.4128 Y30.8691 F120.00
G01 X26.4130 Y32.5260 F120.00
G01 X26.4126 Y32.5363 F120.00
G01 X26.4115 Y32.5465 F120.00
G01 X26.4103 Y32.5533 F120.00
G01 X26.4079 Y32.5633 F120.00
G01 X26.4048 Y32.5732 F120.00
G01 X26.4010 Y32.5827 F120.00
G01 X26.3965 Y32.5920 F120.00
G01 X26.3913 Y32.6009 F120.00
G01 X26.3854 Y32.6094 F120.00
G01 X26.3790 Y32.6174 F120.00
G01 X26.3744 Y32.6225 F120.00
G01 X26.3670 Y32.6297 F120.00
G01 X26.3591 Y32.6364 F120.00
G01 X26.3508 Y32.6424 F120.00
G01 X26.3450 Y32.6461 F120.00
G01 X26.3359 Y32.6511 F120.00
G01 X26.3266 Y32.6553 F120.00
G01 X26.3169 Y32.6589 F120.00
G01 X26.3070 Y32.6618 F120.00
G01 X26.2969 Y32.6639 F120.00
G01 X26.2867 Y32.6653 F120.00
G01 X26.2764 Y32.6660 F120.00
G01 X26.0483 Y32.6660 F120.00
G01 X26.0483 Y36.3819 F120.00
G01 X26.8641 Y37.1977 F120.00
G01 X38.0867 Y37.1977 F120.00
G01 X38.0867 Y32.5842 F120.00
G01 X38.0609 Y32.5608 F120.00
G01 X38.0535 Y32.5536 F120.00
G01 X37.9830 Y32.4758 F120.00
G01 X37.9765 Y32.4678 F120.00
G01 X37.9161 Y32.3862 F120.00
G01 X37.9104 Y32.3775 F120.00
G01 X37.8566 Y32.2874 F120.00
G01 X37.8116 Y32.1925 F120.00
G01 X37.8075 Y32.1831 F120.00
G01 X37.7732 Y32.0874 F120.00
G01 X37.7693 Y32.0743 F120.00
G01 X37.7439 Y31.9724 F120.00
G01 X37.7283 Y31.8686 F120.00
G01 X37.7270 Y31.8549 F120.00
G01 X37.7220 Y31.7500 F120.00
G01 X37.7270 Y31.6451 F120.00
G01 X37.7279 Y31.6348 F120.00
G01 X37.7439 Y31.5276 F120.00
G01 X37.7711 Y31.4191 F120.00
G01 X37.8088 Y31.3137 F120.00
G01 X37.8535 Y31.2187 F120.00
G01 X37.8600 Y31.2066 F120.00
G01 X37.9141 Y31.1166 F120.00
G01 X37.9765 Y31.0322 F120.00
G01 X37.9853 Y31.0216 F120.00
G01 X38.0512 Y30.9489 F120.00
G01 X38.0609 Y30.9392 F120.00
G01 X38.1388 Y30.8688 F120.00
G01 X38.2286 Y30.8021 F120.00
G01 X38.3246 Y30.7446 F120.00
G01 X38.4257 Y30.6968 F120.00
G01 X38.5311 Y30.6591 F120.00
G01 X38.6396 Y30.6319 F120.00
G01 X38.7503 Y30.6155 F120.00
G01 X38.8586 Y30.6100 F120.00
G01 X38.8689 Y30.6102 F120.00
G01 X38.9737 Y30.6155 F120.00
G01 X39.0844 Y30.6319 F120.00
G01 X39.1929 Y30.6591 F120.00
G01 X39.2918 Y30.6943 F120.00
G01 X39.3045 Y30.6996 F120.00
G01 X39.3933 Y30.7415 F120.00
G01 X39.4054 Y30.7480 F120.00
G01 X39.4954 Y30.8021 F120.00
G01 X39.5798 Y30.8645 F120.00
G01 X39.5904 Y30.8733 F120.00
G01 X39.6681 Y30.9439 F120.00
G01 X39.7432 Y31.0268 F120.00
G01 X39.8099 Y31.1166 F120.00
G01 X39.8674 Y31.2126 F120.00
G01 X39.9152 Y31.3137 F120.00
G01 X39.9529 Y31.4191 F120.00
G01 X39.9801 Y31.5276 F120.00
G01 X39.9961 Y31.6348 F120.00
G01 X39.9970 Y31.6451 F120.00
G01 X40.0020 Y31.7500 F120.00
G01 X39.9970 Y31.8549 F120.00
G01 X39.9957 Y31.8686 F120.00
G01 X39.9801 Y31.9724 F120.00
G01 X39.9547 Y32.0743 F120.00
G01 X39.9508 Y32.0874 F120.00
G01 X39.9165 Y32.1831 F120.00
G01 X39.9124 Y32.1925 F120.00
G01 X39.8674 Y32.2874 F120.00
G01 X39.8136 Y32.3775 F120.00
G01 X39.8079 Y32.3862 F120.00
G01 X39.7475 Y32.4678 F120.00
G01 X39.7410 Y32.4758 F120.00
G01 X39.6705 Y32.5536 F120.00
G01 X39.6631 Y32.5608 F120.00
G01 X39.6373 Y32.5842 F120.00
G01 X39.6373 Y37.1977 F120.00
G01 X59.6229 Y37.1977 F120.00
G01 X60.9467 Y35.8739 F120.00
G01 X60.9467 Y32.2850 F120.00
G01 X60.8490 Y32.2850 F120.00
G01 X60.8353 Y32.2843 F120.00
G01 X60.8217 Y32.2823 F120.00
G01 X60.8150 Y32.2808 F120.00
G01 X60.8051 Y32.2779 F120.00
G01 X60.7923 Y32.2730 F120.00
G01 X60.7800 Y32.2668 F120.00
G01 X60.7712 Y32.2614 F120.00
G01 X60.7656 Y32.2574 F120.00
G01 X60.7576 Y32.2510 F120.00
G01 X60.7500 Y32.2440 F120.00
G01 X60.7453 Y32.2390 F120.00
G01 X60.7386 Y32.2311 F120.00
G01 X60.7326 Y32.2228 F120.00
G01 X60.7289 Y32.2170 F120.00
G01 X60.7239 Y32.2079 F120.00
G01 X60.7197 Y32.1986 F120.00
G01 X60.7161 Y32.1889 F120.00
G01 X60.7141 Y32.1823 F120.00
G01 X60.7117 Y32.1723 F120.00
G01 X60.7105 Y32.1655 F120.00
G01 X60.7097 Y32.1587 F120.00
G01 X60.7090 Y32.1484 F120.00
G01 X60.7090 Y30.4950 F120.00
G01 X60.7094 Y30.4847 F120.00
G01 X60.7111 Y30.4711 F120.00
G01 X60.7132 Y30.4610 F120.00
G01 X60.7172 Y30.4478 F120.00
G01 X60.7224 Y30.4351 F120.00
G01 X60.7272 Y30.4260 F120.00
G01 X60.7345 Y30.4144 F120.00
G01 X60.7430 Y30.4036 F120.00
G01 X60.7525 Y30.3936 F120.00
G01 X60.7602 Y30.3868 F120.00
G01 X60.7712 Y30.3786 F120.00
G01 X60.7830 Y30.3715 F120.00
G01 X60.7954 Y30.3657 F120.00
G01 X60.8084 Y30.3610 F120.00
G01 X60.8217 Y30.3577 F120.00
G01 X60.8319 Y30.3561 F120.00
G01 X60.8456 Y30.3550 F120.00
G01 X62.8559 Y30.3552 F120.00
G01 X62.8695 Y30.3565 F120.00
G01 X62.8797 Y30.3584 F120.00
G01 X62.8896 Y30.3610 F120.00
G01 X62.8994 Y30.3644 F120.00
G01 X62.9089 Y30.3684 F120.00
G01 X62.9180 Y30.3732 F120.00
G01 X62.9268 Y30.3786 F120.00
G01 X62.9351 Y30.3846 F120.00
G01 X62.9430 Y30.3913 F120.00
G01 X62.9504 Y30.3985 F120.00
G01 X62.9572 Y30.4062 F120.00
G01 X62.9654 Y30.4172 F120.00
G01 X62.9708 Y30.4260 F120.00
G01 X62.9756 Y30.4351 F120.00
G01 X62.9808 Y30.4478 F120.00
G01 X62.9839 Y30.4577 F120.00
G01 X62.9856 Y30.4643 F120.00
G01 X62.9875 Y30.4745 F120.00
G01 X62.9886 Y30.4847 F120.00
G01 X62.9890 Y30.4950 F120.00
G01 X62.9890 Y32.1450 F120.00
G01 X62.9886 Y32.1553 F120.00
G01 X62.9879 Y32.1621 F120.00
G01 X62.9863 Y32.1723 F120.00
G01 X62.9839 Y32.1823 F120.00
G01 X62.9808 Y32.1922 F120.00
G01 X62.9783 Y32.1986 F120.00
G01 X62.9741 Y32.2079 F120.00
G01 X62.9691 Y32.2170 F120.00
G01 X62.9654 Y32.2228 F120.00
G01 X62.9594 Y32.2311 F120.00
G01 X62.9527 Y32.2390 F120.00
G01 X62.9455 Y32.2464 F120.00
G01 X62.9378 Y32.2532 F120.00
G01 X62.9324 Y32.2574 F120.00
G01 X62.9239 Y32.2633 F120.00
G01 X62.9150 Y32.2685 F120.00
G01 X62.9057 Y32.2730 F120.00
G01 X62.8962 Y32.2768 F120.00
G01 X62.8863 Y32.2799 F120.00
G01 X62.8763 Y32.2823 F120.00
G01 X62.8627 Y32.2843 F120.00
G01 X62.8490 Y32.2850 F120.00
G01 X62.4973 Y32.2850 F120.00
G01 X62.4973 Y36.1950 F120.00
G01 X62.4936 Y36.2710 F120.00
G01 X62.4830 Y36.3429 F120.00
G01 X62.4809 Y36.3530 F120.00
G01 X62.4649 Y36.4168 F120.00
G01 X62.4585 Y36.4358 F120.00
G01 X68.0588 Y36.4358 F120.00
G01 X68.0588 Y30.7880 F120.00
G01 X67.6800 Y30.7880 F120.00
G01 X67.6663 Y30.7873 F120.00
G01 X67.6527 Y30.7853 F120.00
G01 X67.6427 Y30.7829 F120.00
G01 X67.6328 Y30.7798 F120.00
G01 X67.6233 Y30.7760 F120.00
G01 X67.6140 Y30.7715 F120.00
G01 X67.6051 Y30.7663 F120.00
G01 X67.5994 Y30.7625 F120.00
G01 X67.5912 Y30.7562 F120.00
G01 X67.5835 Y30.7494 F120.00
G01 X67.5763 Y30.7420 F120.00
G01 X67.5696 Y30.7341 F120.00
G01 X67.5655 Y30.7286 F120.00
G01 X67.5599 Y30.7200 F120.00
G01 X67.5549 Y30.7109 F120.00
G01 X67.5507 Y30.7016 F120.00
G01 X67.5471 Y30.6919 F120.00
G01 X67.5442 Y30.6820 F120.00
G01 X67.5427 Y30.6753 F120.00
G01 X67.5411 Y30.6651 F120.00
G01 X67.5404 Y30.6583 F120.00
G01 X67.5400 Y30.6480 F120.00
G01 X67.5400 Y29.3480 F120.00
G01 X67.5407 Y29.3343 F120.00
G01 X67.5427 Y29.3207 F120.00
G01 X67.5451 Y29.3107 F120.00
G01 X67.5494 Y29.2976 F120.00
G01 X67.5549 Y29.2851 F120.00
G01 X67.5599 Y29.2760 F120.00
G01 X67.5676 Y29.2646 F120.00
G01 X67.5763 Y29.2540 F120.00
G01 X67.5860 Y29.2443 F120.00
G01 X67.5966 Y29.2356 F120.00
G01 X67.6051 Y29.2297 F120.00
G01 X67.6171 Y29.2229 F120.00
G01 X67.6296 Y29.2174 F120.00
G01 X67.6394 Y29.2140 F120.00
G01 X67.6527 Y29.2107 F120.00
G01 X67.6629 Y29.2091 F120.00
G01 X67.6766 Y29.2080 F120.00
G01 X69.4869 Y29.2082 F120.00
G01 X69.4971 Y29.2091 F120.00
G01 X69.5107 Y29.2114 F120.00
G01 X69.5206 Y29.2140 F120.00
G01 X69.5304 Y29.2174 F120.00
G01 X69.5399 Y29.2214 F120.00
G01 X69.5490 Y29.2262 F120.00
G01 X69.5578 Y29.2316 F120.00
G01 X69.5661 Y29.2376 F120.00
G01 X69.5740 Y29.2443 F120.00
G01 X69.5837 Y29.2540 F120.00
G01 X69.5904 Y29.2619 F120.00
G01 X69.5964 Y29.2702 F120.00
G01 X69.6018 Y29.2790 F120.00
G01 X69.6066 Y29.2881 F120.00
G01 X69.6106 Y29.2976 F120.00
G01 X69.6140 Y29.3074 F120.00
G01 X69.6166 Y29.3173 F120.00
G01 X69.6185 Y29.3275 F120.00
G01 X69.6196 Y29.3377 F120.00
G01 X69.6200 Y29.3480 F120.00
G01 X69.6200 Y30.6480 F120.00
G01 X69.6196 Y30.6583 F120.00
G01 X69.6179 Y30.6719 F120.00
G01 X69.6149 Y30.6853 F120.00
G01 X69.6118 Y30.6952 F120.00
G01 X69.6080 Y30.7047 F120.00
G01 X69.6051 Y30.7109 F120.00
G01 X69.6018 Y30.7170 F120.00
G01 X69.5964 Y30.7258 F120.00
G01 X69.5904 Y30.7341 F120.00
G01 X69.5837 Y30.7420 F120.00
G01 X69.5790 Y30.7470 F120.00
G01 X69.5714 Y30.7540 F120.00
G01 X69.5634 Y30.7604 F120.00
G01 X69.5549 Y30.7663 F120.00
G01 X69.5490 Y30.7698 F120.00
G01 X69.5399 Y30.7746 F120.00
G01 X69.5304 Y30.7786 F120.00
G01 X69.5206 Y30.7820 F120.00
G01 X69.5107 Y30.7846 F120.00
G01 X69.5039 Y30.7859 F120.00
G01 X69.4937 Y30.7873 F120.00
G01 X69.4800 Y30.7880 F120.00
G01 X69.1012 Y30.7880 F120.00
G01 X69.1012 Y36.4358 F120.00
G01 X69.8881 Y36.4358 F120.00
G01 X73.6468 Y32.6771 F120.00
G01 X73.6468 Y27.0880 F120.00
G01 X73.6493 Y27.0369 F120.00
G01 X73.6562 Y26.9897 F120.00
G01 X73.6583 Y26.9796 F120.00
G01 X73.6683 Y26.9400 F120.00
G01 X73.6780 Y26.9118 F120.00
G01 X73.6780 Y26.1880 F120.00
G01 X73.6799 Y26.1468 F120.00
G01 X73.6812 Y26.1332 F120.00
G01 X73.6874 Y26.0924 F120.00
G01 X73.6973 Y26.0524 F120.00
G01 X73.7013 Y26.0392 F120.00
G01 X73.7128 Y26.0069 F120.00
G01 X73.7167 Y25.9973 F120.00
G01 X73.7359 Y25.9570 F120.00
G01 X73.7569 Y25.9216 F120.00
G01 X73.7625 Y25.9129 F120.00
G01 X73.7850 Y25.8826 F120.00
G01 X73.7937 Y25.8719 F120.00
G01 X73.8215 Y25.8415 F120.00
G01 X73.8571 Y25.8092 F120.00
G01 X73.8958 Y25.7806 F120.00
G01 X73.9310 Y25.7592 F120.00
G01 X73.9432 Y25.7528 F120.00
G01 X73.9742 Y25.7381 F120.00
G01 X73.9837 Y25.7340 F120.00
G01 X74.0258 Y25.7191 F120.00
G01 X74.0657 Y25.7089 F120.00
G01 X74.0792 Y25.7062 F120.00
G01 X74.1166 Y25.7007 F120.00
G01 X74.1268 Y25.6999 F120.00
G01 X74.1680 Y25.6980 F120.00
G01 X74.2160 Y25.7004 F120.00
G01 X74.2636 Y25.7074 F120.00
G01 X74.3036 Y25.7173 F120.00
G01 X74.3168 Y25.7213 F120.00
G01 X74.3555 Y25.7353 F120.00
G01 X74.3928 Y25.7528 F120.00
G01 X74.4050 Y25.7592 F120.00
G01 X74.4402 Y25.7806 F120.00
G01 X74.4789 Y25.8092 F120.00
G01 X74.5095 Y25.8368 F120.00
G01 X74.5192 Y25.8465 F120.00
G01 X74.5468 Y25.8771 F120.00
G01 X74.5735 Y25.9129 F120.00
G01 X74.5791 Y25.9216 F120.00
G01 X74.6001 Y25.9570 F120.00
G01 X74.6179 Y25.9942 F120.00
G01 X74.6232 Y26.0069 F120.00
G01 X74.6369 Y26.0458 F120.00
G01 X74.6471 Y26.0857 F120.00
G01 X74.6498 Y26.0992 F120.00
G01 X74.6556 Y26.1400 F120.00
G01 X74.6580 Y26.1880 F120.00
G01 X74.6580 Y26.9118 F120.00
G01 X74.6677 Y26.9400 F120.00
G01 X74.6777 Y26.9796 F120.00
G01 X74.6798 Y26.9897 F120.00
G01 X74.6867 Y27.0369 F120.00
G01 X74.6891 Y27.0846 F120.00
G01 X74.6892 Y32.8930 F120.00
G01 X74.6867 Y32.9441 F120.00
G01 X74.6804 Y32.9879 F120.00
G01 X74.6777 Y33.0014 F120.00
G01 X74.6667 Y33.0443 F120.00
G01 X74.6495 Y33.0925 F120.00
G01 X74.6276 Y33.1387 F120.00
G01 X74.6050 Y33.1768 F120.00
G01 X74.5974 Y33.1882 F120.00
G01 X74.5751 Y33.2182 F120.00
G01 X74.5687 Y33.2263 F120.00
G01 X74.5365 Y33.2615 F120.00
G01 X73.6986 Y34.0995 F120.00
G01 X73.8759 Y34.2768 F120.00
G01 X76.1460 Y34.2768 F120.00
G01 X76.1460 Y33.8980 F120.00
G01 X76.1467 Y33.8843 F120.00
G01 X76.1487 Y33.8707 F120.00
G01 X76.1511 Y33.8607 F120.00
G01 X76.1531 Y33.8541 F120.00
G01 X76.1567 Y33.8444 F120.00
G01 X76.1609 Y33.8351 F120.00
G01 X76.1659 Y33.8260 F120.00
G01 X76.1696 Y33.8202 F120.00
G01 X76.1756 Y33.8119 F120.00
G01 X76.1823 Y33.8040 F120.00
G01 X76.1895 Y33.7966 F120.00
G01 X76.1972 Y33.7898 F120.00
G01 X76.2026 Y33.7856 F120.00
G01 X76.2111 Y33.7797 F120.00
G01 X76.2200 Y33.7745 F120.00
G01 X76.2261 Y33.7714 F120.00
G01 X76.2324 Y33.7687 F120.00
G01 X76.2421 Y33.7651 F120.00
G01 X76.2520 Y33.7622 F120.00
G01 X76.2655 Y33.7595 F120.00
G01 X76.2757 Y33.7584 F120.00
G01 X76.2860 Y33.7580 F120.00
G01 X77.5860 Y33.7580 F120.00
G01 X77.5997 Y33.7587 F120.00
G01 X77.6133 Y33.7607 F120.00
G01 X77.6233 Y33.7631 F120.00
G01 X77.6299 Y33.7651 F120.00
G01 X77.6427 Y33.7700 F120.00
G01 X77.6520 Y33.7745 F120.00
G01 X77.6609 Y33.7797 F120.00
G01 X77.6666 Y33.7835 F120.00
G01 X77.6748 Y33.7898 F120.00
G01 X77.6825 Y33.7966 F120.00
G01 X77.6897 Y33.8040 F120.00
G01 X77.6964 Y33.8119 F120.00
G01 X77.7024 Y33.8202 F120.00
G01 X77.7078 Y33.8290 F120.00
G01 X77.7126 Y33.8381 F120.00
G01 X77.7166 Y33.8476 F120.00
G01 X77.7200 Y33.8574 F120.00
G01 X77.7226 Y33.8673 F120.00
G01 X77.7245 Y33.8775 F120.00
G01 X77.7256 Y33.8877 F120.00
G01 X77.7260 Y33.8980 F120.00
G01 X77.7260 Y35.7014 F120.00
G01 X77.7253 Y35.7117 F120.00
G01 X77.7245 Y35.7185 F120.00
G01 X77.7233 Y35.7253 F120.00
G01 X77.7209 Y35.7353 F120.00
G01 X77.7166 Y35.7484 F120.00
G01 X77.7140 Y35.7547 F120.00
G01 X77.7095 Y35.7640 F120.00
G01 X77.7024 Y35.7758 F120.00
G01 X77.6964 Y35.7841 F120.00
G01 X77.6920 Y35.7894 F120.00
G01 X77.6874 Y35.7945 F120.00
G01 X77.6800 Y35.8017 F120.00
G01 X77.6748 Y35.8062 F120.00
G01 X77.6666 Y35.8125 F120.00
G01 X77.6580 Y35.8181 F120.00
G01 X77.6489 Y35.8231 F120.00
G01 X77.6396 Y35.8273 F120.00
G01 X77.6299 Y35.8309 F120.00
G01 X77.6200 Y35.8338 F120.00
G01 X77.6099 Y35.8359 F120.00
G01 X77.5997 Y35.8373 F120.00
G01 X77.5894 Y35.8380 F120.00
G01 X76.2860 Y35.8380 F120.00
G01 X76.2757 Y35.8376 F120.00
G01 X76.2655 Y35.8365 F120.00
G01 X76.2520 Y35.8338 F120.00
G01 X76.2421 Y35.8309 F120.00
G01 X76.2324 Y35.8273 F120.00
G01 X76.2261 Y35.8246 F120.00
G01 X76.2200 Y35.8215 F120.00
G01 X76.2111 Y35.8163 F120.00
G01 X76.2026 Y35.8104 F120.00
G01 X76.1946 Y35.8040 F120.00
G01 X76.1870 Y35.7970 F120.00
G01 X76.1823 Y35.7920 F120.00
G01 X76.1756 Y35.7841 F120.00
G01 X76.1696 Y35.7758 F120.00
G01 X76.1642 Y35.7670 F120.00
G01 X76.1609 Y35.7609 F120.00
G01 X76.1567 Y35.7516 F120.00
G01 X76.1531 Y35.7419 F120.00
G01 X76.1502 Y35.7320 F120.00
G01 X76.1487 Y35.7253 F120.00
G01 X76.1467 Y35.7117 F120.00
G01 X76.1460 Y35.6980 F120.00
G01 X76.1460 Y35.3192 F120.00
G01 X73.6600 Y35.3192 F120.00
G01 X73.6089 Y35.3167 F120.00
G01 X73.5583 Y35.3092 F120.00
G01 X73.5087 Y35.2967 F120.00
G01 X73.4670 Y35.2820 F120.00
G01 X73.4543 Y35.2767 F120.00
G01 X73.4143 Y35.2576 F120.00
G01 X73.3762 Y35.2350 F120.00
G01 X73.3648 Y35.2274 F120.00
G01 X73.3320 Y35.2030 F120.00
G01 X73.3242 Y35.1964 F120.00
G01 X73.2915 Y35.1665 F120.00
G01 X72.9615 Y34.8366 F120.00
G01 X70.4701 Y37.3279 F120.00
G01 X70.4346 Y37.3599 F120.00
G01 X70.3992 Y37.3864 F120.00
G01 X70.3878 Y37.3940 F120.00
G01 X70.3497 Y37.4166 F120.00
G01 X70.3035 Y37.4385 F120.00
G01 X70.2618 Y37.4536 F120.00
G01 X70.2487 Y37.4576 F120.00
G01 X70.2124 Y37.4667 F120.00
G01 X70.2023 Y37.4688 F120.00
G01 X70.1551 Y37.4757 F120.00
G01 X70.1040 Y37.4782 F120.00
G01 X61.5353 Y37.4782 F120.00
G01 X60.4922 Y38.5212 F120.00
G01 X60.4359 Y38.5723 F120.00
G01 X60.3747 Y38.6177 F120.00
G01 X60.3155 Y38.6534 F120.00
G01 X60.3033 Y38.6599 F120.00
G01 X60.2407 Y38.6893 F120.00
G01 X60.1691 Y38.7149 F120.00
G01 X60.1020 Y38.7319 F120.00
G01 X60.0885 Y38.7346 F120.00
G01 X60.0268 Y38.7437 F120.00
G01 X60.0131 Y38.7451 F120.00
G01 X59.9440 Y38.7483 F120.00
G01 X48.6542 Y38.7483 F120.00
G01 X48.6542 Y41.0591 F120.00
G01 X50.6349 Y43.0398 F120.00
G01 X98.0821 Y43.0398 F120.00
G01 X99.1738 Y41.9481 F120.00
G01 X99.1738 Y36.4284 F120.00
G01 X99.1022 Y36.4028 F120.00
G01 X99.0895 Y36.3976 F120.00
G01 X99.0158 Y36.3625 F120.00
G01 X98.9457 Y36.3207 F120.00
G01 X98.9343 Y36.3130 F120.00
G01 X98.8688 Y36.2643 F120.00
G01 X98.8032 Y36.2048 F120.00
G01 X98.7437 Y36.1392 F120.00
G01 X98.6950 Y36.0737 F120.00
G01 X98.6873 Y36.0623 F120.00
G01 X98.6455 Y35.9922 F120.00
G01 X98.6104 Y35.9185 F120.00
G01 X98.6052 Y35.9058 F120.00
G01 X98.5778 Y35.8288 F120.00
G01 X98.5578 Y35.7497 F120.00
G01 X98.5552 Y35.7362 F120.00
G01 X98.5433 Y35.6554 F120.00
G01 X98.5392 Y35.5739 F120.00
G01 X98.5392 Y35.5601 F120.00
G01 X98.5433 Y35.4786 F120.00
G01 X98.5563 Y35.3910 F120.00
G01 X98.5778 Y35.3052 F120.00
G01 X98.6052 Y35.2282 F120.00
G01 X98.6104 Y35.2155 F120.00
G01 X98.6455 Y35.1418 F120.00
G01 X98.6873 Y35.0717 F120.00
G01 X98.6950 Y35.0603 F120.00
G01 X98.7395 Y35.0002 F120.00
G01 X98.7482 Y34.9896 F120.00
G01 X98.7985 Y34.9342 F120.00
G01 X98.8082 Y34.9245 F120.00
G01 X98.8688 Y34.8697 F120.00
G01 X98.9399 Y34.8170 F120.00
G01 X99.0158 Y34.7715 F120.00
G01 X99.0895 Y34.7364 F120.00
G01 X99.1022 Y34.7312 F120.00
G01 X99.1726 Y34.7060 F120.00
G01 X99.1825 Y34.7029 F120.00
G01 X99.2650 Y34.6823 F120.00
G01 X99.3458 Y34.6702 F120.00
G01 X99.3594 Y34.6688 F120.00
G01 X99.4410 Y34.6650 F120.00
G01 X99.9490 Y34.6650 F120.00
G01 X100.0374 Y34.6693 F120.00
G01 X100.1182 Y34.6812 F120.00
G01 X100.1317 Y34.6838 F120.00
G01 X100.2108 Y34.7038 F120.00
G01 X100.2878 Y34.7312 F120.00
G01 X100.3005 Y34.7364 F120.00
G01 X100.3711 Y34.7699 F120.00
G01 X100.3802 Y34.7749 F120.00
G01 X100.4501 Y34.8170 F120.00
G01 X100.5158 Y34.8655 F120.00
G01 X100.5239 Y34.8720 F120.00
G01 X100.5818 Y34.9245 F120.00
G01 X100.5892 Y34.9316 F120.00
G01 X100.6463 Y34.9948 F120.00
G01 X100.6791 Y35.0388 F120.00
G01 X103.9241 Y35.0388 F120.00
G01 X104.7618 Y34.2011 F120.00
G01 X104.7618 Y21.9329 F120.00
G01 X103.0421 Y20.2132 F120.00
G01 X100.6843 Y20.2132 F120.00
G01 X100.6463 Y20.2642 F120.00
G01 X100.5915 Y20.3248 F120.00
G01 X100.5818 Y20.3345 F120.00
G01 X100.5264 Y20.3848 F120.00
G01 X100.5158 Y20.3935 F120.00
G01 X100.4501 Y20.4420 F120.00
G01 X100.3772 Y20.4858 F120.00
G01 X100.3681 Y20.4906 F120.00
G01 X100.2942 Y20.5253 F120.00
G01 X100.2108 Y20.5552 F120.00
G01 X100.1250 Y20.5767 F120.00
G01 X100.0442 Y20.5888 F120.00
G01 X100.0340 Y20.5900 F120.00
G01 X99.9490 Y20.5940 F120.00
G01 X99.4410 Y20.5940 F120.00
G01 X99.3526 Y20.5897 F120.00
G01 X99.2650 Y20.5767 F120.00
G01 X99.1792 Y20.5552 F120.00
G01 X99.0958 Y20.5253 F120.00
G01 X99.0219 Y20.4906 F120.00
G01 X99.0128 Y20.4858 F120.00
G01 X98.9399 Y20.4420 F120.00
G01 X98.8742 Y20.3935 F120.00
G01 X98.8636 Y20.3848 F120.00
G01 X98.8032 Y20.3298 F120.00
G01 X98.7437 Y20.2642 F120.00
G01 X98.6950 Y20.1987 F120.00
G01 X98.6873 Y20.1873 F120.00
G01 X98.6489 Y20.1232 F120.00
G01 X98.6424 Y20.1111 F120.00
G01 X98.6077 Y20.0372 F120.00
G01 X98.5800 Y19.9604 F120.00
G01 X98.5760 Y19.9472 F120.00
G01 X98.5578 Y19.8747 F120.00
G01 X98.5552 Y19.8612 F120.00
G01 X98.5433 Y19.7804 F120.00
G01 X98.5390 Y19.6920 F120.00
G01 X98.5433 Y19.6036 F120.00
G01 X98.5552 Y19.5228 F120.00
G01 X98.5578 Y19.5093 F120.00
G01 X98.5760 Y19.4368 F120.00
G01 X98.5800 Y19.4236 F120.00
G01 X98.6077 Y19.3468 F120.00
G01 X98.6455 Y19.2668 F120.00
G01 X98.6873 Y19.1967 F120.00
G01 X98.6950 Y19.1853 F120.00
G01 X98.7437 Y19.1198 F120.00
G01 X98.8032 Y19.0542 F120.00
G01 X98.8688 Y18.9947 F120.00
G01 X98.9343 Y18.9460 F120.00
G01 X98.9457 Y18.9383 F120.00
G01 X99.0158 Y18.8965 F120.00
G01 X99.0958 Y18.8587 F120.00
G01 X99.1726 Y18.8310 F120.00
G01 X99.1858 Y18.8270 F120.00
G01 X99.2583 Y18.8088 F120.00
G01 X99.2718 Y18.8062 F120.00
G01 X99.3526 Y18.7943 F120.00
G01 X99.4376 Y18.7900 F120.00
G01 X99.9524 Y18.7900 F120.00
G01 X100.0306 Y18.7938 F120.00
G01 X100.0442 Y18.7952 F120.00
G01 X100.1250 Y18.8073 F120.00
G01 X100.2042 Y18.8270 F120.00
G01 X100.2174 Y18.8310 F120.00
G01 X100.2878 Y18.8562 F120.00
G01 X100.3005 Y18.8614 F120.00
G01 X100.3742 Y18.8965 F120.00
G01 X100.4443 Y18.9383 F120.00
G01 X100.4530 Y18.9440 F120.00
G01 X100.5212 Y18.9947 F120.00
G01 X100.5868 Y19.0542 F120.00
G01 X100.6463 Y19.1198 F120.00
G01 X100.6843 Y19.1708 F120.00
G01 X103.2614 Y19.1709 F120.00
G01 X103.3091 Y19.1733 F120.00
G01 X103.3597 Y19.1808 F120.00
G01 X103.4093 Y19.1933 F120.00
G01 X103.4575 Y19.2105 F120.00
G01 X103.5037 Y19.2324 F120.00
G01 X103.5476 Y19.2586 F120.00
G01 X103.5886 Y19.2891 F120.00
G01 X103.6241 Y19.3211 F120.00
G01 X105.6515 Y21.3485 F120.00
G01 X105.6859 Y21.3864 F120.00
G01 X105.7164 Y21.4274 F120.00
G01 X105.7426 Y21.4713 F120.00
G01 X105.7645 Y21.5175 F120.00
G01 X105.7817 Y21.5657 F120.00
G01 X105.7942 Y21.6153 F120.00
G01 X105.8017 Y21.6659 F120.00
G01 X105.8042 Y21.7170 F120.00
G01 X105.8042 Y34.4170 F120.00
G01 X105.8017 Y34.4681 F120.00
G01 X105.7942 Y34.5187 F120.00
G01 X105.7817 Y34.5683 F120.00
G01 X105.7670 Y34.6100 F120.00
G01 X105.7617 Y34.6227 F120.00
G01 X105.7426 Y34.6627 F120.00
G01 X105.7200 Y34.7008 F120.00
G01 X105.7124 Y34.7122 F120.00
G01 X105.6859 Y34.7476 F120.00
G01 X105.6539 Y34.7831 F120.00
G01 X104.5061 Y35.9309 F120.00
G01 X104.4758 Y35.9584 F120.00
G01 X104.4652 Y35.9671 F120.00
G01 X104.4296 Y35.9934 F120.00
G01 X104.3917 Y36.0163 F120.00
G01 X104.3795 Y36.0227 F120.00
G01 X104.3395 Y36.0415 F120.00
G01 X104.2946 Y36.0577 F120.00
G01 X104.2847 Y36.0606 F120.00
G01 X104.2484 Y36.0697 F120.00
G01 X104.2349 Y36.0724 F120.00
G01 X104.1911 Y36.0787 F120.00
G01 X104.1400 Y36.0812 F120.00
G01 X100.6895 Y36.0812 F120.00
G01 X100.6463 Y36.1392 F120.00
G01 X100.5868 Y36.2048 F120.00
G01 X100.5212 Y36.2643 F120.00
G01 X100.4557 Y36.3130 F120.00
G01 X100.4443 Y36.3207 F120.00
G01 X100.3802 Y36.3591 F120.00
G01 X100.3681 Y36.3656 F120.00
G01 X100.2942 Y36.4003 F120.00
G01 X100.2162 Y36.4284 F120.00
G01 X100.2162 Y42.1640 F120.00
G01 X100.2137 Y42.2151 F120.00
G01 X100.2074 Y42.2589 F120.00
G01 X100.2047 Y42.2724 F120.00
G01 X100.1937 Y42.3153 F120.00
G01 X100.1790 Y42.3570 F120.00
G01 X100.1737 Y42.3697 F120.00
G01 X100.1546 Y42.4097 F120.00
G01 X100.1320 Y42.4478 F120.00
G01 X100.1244 Y42.4592 F120.00
G01 X100.0979 Y42.4946 F120.00
G01 X100.0683 Y42.5276 F120.00
G01 X98.6665 Y43.9295 F120.00
G01 X98.6338 Y43.9594 F120.00
G01 X98.6232 Y43.9681 F120.00
G01 X98.5876 Y43.9944 F120.00
G01 X98.5437 Y44.0206 F120.00
G01 X98.4975 Y44.0425 F120.00
G01 X98.4558 Y44.0576 F120.00
G01 X98.4427 Y44.0616 F120.00
G01 X98.4064 Y44.0707 F120.00
G01 X98.3963 Y44.0728 F120.00
G01 X98.3491 Y44.0797 F120.00
G01 X98.2980 Y44.0822 F120.00
G01 X50.4190 Y44.0822 F120.00
G01 X50.3679 Y44.0797 F120.00
G01 X50.3173 Y44.0722 F120.00
G01 X50.2677 Y44.0597 F120.00
G01 X50.2260 Y44.0450 F120.00
G01 X50.2133 Y44.0397 F120.00
G01 X50.1733 Y44.0206 F120.00
G01 X50.1352 Y43.9980 F120.00
G01 X50.1238 Y43.9904 F120.00
G01 X50.0884 Y43.9639 F120.00
G01 X50.0529 Y43.9319 F120.00
G01 X47.7645 Y41.6435 F120.00
G01 X47.7301 Y41.6056 F120.00
G01 X47.7036 Y41.5702 F120.00
G01 X47.6960 Y41.5588 F120.00
G01 X47.6767 Y41.5267 F120.00
G01 X47.6718 Y41.5176 F120.00
G01 X47.6543 Y41.4807 F120.00
G01 X47.6490 Y41.4680 F120.00
G01 X47.6343 Y41.4263 F120.00
G01 X47.6233 Y41.3834 F120.00
G01 X47.6206 Y41.3699 F120.00
G01 X47.6143 Y41.3261 F120.00
G01 X47.6119 Y41.2784 F120.00
G01 X47.6118 Y38.7483 F120.00
G01 X26.5430 Y38.7483 F120.00
G01 X26.4670 Y38.7446 F120.00
G01 X26.3951 Y38.7340 F120.00
G01 X26.3850 Y38.7319 F120.00
G01 X26.3246 Y38.7168 F120.00
G01 X26.3114 Y38.7128 F120.00
G01 X26.2463 Y38.6893 F120.00
G01 X26.1775 Y38.6568 F120.00
G01 X26.1181 Y38.6213 F120.00
G01 X26.1066 Y38.6137 F120.00
G01 X26.0511 Y38.5723 F120.00
G01 X25.9972 Y38.5236 F120.00
G01 X24.7224 Y37.2488 F120.00
G01 X24.6737 Y37.1949 F120.00
G01 X24.6283 Y37.1337 F120.00
G01 X24.5892 Y37.0685 F120.00
G01 X24.5595 Y37.0060 F120.00
G01 X24.5542 Y36.9933 F120.00
G01 X24.5311 Y36.9281 F120.00
G01 X24.5126 Y36.8543 F120.00
G01 X24.5014 Y36.7790 F120.00
G01 X24.4977 Y36.7064 F120.00
G01 X24.4977 Y32.6660 F120.00
G01 X24.2661 Y32.6658 F120.00
G01 X24.2593 Y32.6653 F120.00
G01 X24.2491 Y32.6639 F120.00
G01 X24.2357 Y32.6609 F120.00
G01 X24.2291 Y32.6589 F120.00
G01 X24.2194 Y32.6553 F120.00
G01 X24.2070 Y32.6495 F120.00
G01 X24.1952 Y32.6424 F120.00
G01 X24.1869 Y32.6364 F120.00
G01 X24.1765 Y32.6274 F120.00
G01 X24.1693 Y32.6200 F120.00
G01 X24.1606 Y32.6094 F120.00
G01 X24.1547 Y32.6009 F120.00
G01 X24.1479 Y32.5889 F120.00
G01 X24.1437 Y32.5796 F120.00
G01 X24.1401 Y32.5699 F120.00
G01 X24.1372 Y32.5600 F120.00
G01 X24.1351 Y32.5499 F120.00
G01 X24.1337 Y32.5397 F120.00
G01 X24.1330 Y32.5260 F120.00
G01 X24.1330 Y32.4763 F120.00
G01 X10.1110 Y32.4763 F120.00
G01 X10.0419 Y32.4731 F120.00
G01 X10.0282 Y32.4717 F120.00
G01 X9.9597 Y32.4614 F120.00
G01 X9.8859 Y32.4429 F120.00
G01 X9.8207 Y32.4198 F120.00
G01 X9.8080 Y32.4145 F120.00
G01 X9.7455 Y32.3848 F120.00
G01 X9.6831 Y32.3475 F120.00
G01 X9.6746 Y32.3417 F120.00
G01 X9.6191 Y32.3003 F120.00
G01 X9.5628 Y32.2492 F120.00
G01 X5.9264 Y28.6128 F120.00
G01 X5.8777 Y28.5589 F120.00
G01 X5.8363 Y28.5034 F120.00
G01 X5.8287 Y28.4919 F120.00
G01 X5.7932 Y28.4325 F120.00
G01 X5.7635 Y28.3700 F120.00
G01 X5.7582 Y28.3573 F120.00
G01 X5.7351 Y28.2921 F120.00
G01 X5.7181 Y28.2250 F120.00
G01 X5.7154 Y28.2115 F120.00
G01 X5.7054 Y28.1430 F120.00
G01 X5.7017 Y28.0670 F120.00
G01 X5.7019 Y15.8681 F120.00
G00 Z2.0000
G00 X5.7917 Y15.8725
G01 F60.00
G01 Z0.0000
G01 F120.00
G01 X5.7950 Y15.8078 F120.00
G01 X5.8049 Y15.7413 F120.00
G01 X5.8212 Y15.6761 F120.00
G01 X5.8438 Y15.6127 F120.00
G01 X5.8726 Y15.5519 F120.00
G01 X5.9072 Y15.4943 F120.00
G01 X5.9472 Y15.4402 F120.00
G01 X5.9916 Y15.3913 F120.00
G01 X7.7214 Y13.6614 F120.00
G01 X7.7694 Y13.6178 F120.00
G01 X7.8273 Y13.5749 F120.00
G01 X7.8829 Y13.5416 F120.00
G01 X7.9437 Y13.5128 F120.00
G01 X8.0094 Y13.4895 F120.00
G01 X8.0723 Y13.4739 F120.00
G01 X8.1376 Y13.4641 F120.00
G01 X8.2060 Y13.4607 F120.00
G01 X14.4440 Y13.4607 F120.00
G01 X14.4440 Y13.3210 F120.00
G01 X14.4444 Y13.3149 F120.00
G01 X14.4455 Y13.3089 F120.00
G01 X14.4478 Y13.3019 F120.00
G01 X14.4511 Y13.2953 F120.00
G01 X14.4561 Y13.2883 F120.00
G01 X14.4613 Y13.2831 F120.00
G01 X14.4673 Y13.2788 F120.00
G01 X14.4737 Y13.2753 F120.00
G01 X14.4807 Y13.2728 F120.00
G01 X14.4891 Y13.2712 F120.00
G01 X16.4940 Y13.2710 F120.00
G01 X16.5025 Y13.2717 F120.00
G01 X16.5108 Y13.2739 F120.00
G01 X16.5186 Y13.2775 F120.00
G01 X16.5248 Y13.2816 F120.00
G01 X16.5310 Y13.2874 F120.00
G01 X16.5356 Y13.2932 F120.00
G01 X16.5392 Y13.2996 F120.00
G01 X16.5422 Y13.3077 F120.00
G01 X16.5435 Y13.3137 F120.00
G01 X16.5440 Y13.3210 F120.00
G01 X16.5440 Y13.4607 F120.00
G01 X25.1950 Y13.4607 F120.00
G01 X25.2622 Y13.4640 F120.00
G01 X25.3299 Y13.4741 F120.00
G01 X25.3951 Y13.4906 F120.00
G01 X25.4561 Y13.5124 F120.00
G01 X25.4894 Y13.5280 F120.00
G01 X26.4282 Y13.5280 F120.00
G01 X26.4380 Y13.5292 F120.00
G01 X26.4473 Y13.5323 F120.00
G01 X26.4558 Y13.5371 F120.00
G01 X26.4624 Y13.5426 F120.00
G01 X26.4686 Y13.5502 F120.00
G01 X26.4732 Y13.5589 F120.00
G01 X26.4760 Y13.5682 F120.00
G01 X26.4770 Y13.5780 F120.00
G01 X26.4770 Y15.3792 F120.00
G01 X26.4758 Y15.3890 F120.00
G01 X26.4732 Y15.3971 F120.00
G01 X26.4686 Y15.4058 F120.00
G01 X26.4632 Y15.4125 F120.00
G01 X26.4558 Y15.4189 F120.00
G01 X26.4484 Y15.4232 F120.00
G01 X26.4391 Y15.4265 F120.00
G01 X26.4307 Y15.4279 F120.00
G01 X24.6270 Y15.4280 F120.00
G01 X24.6185 Y15.4273 F120.00
G01 X24.6113 Y15.4255 F120.00
G01 X24.6034 Y15.4221 F120.00
G01 X24.5972 Y15.4182 F120.00
G01 X24.5916 Y15.4134 F120.00
G01 X24.5868 Y15.4078 F120.00
G01 X24.5829 Y15.4016 F120.00
G01 X24.5799 Y15.3948 F120.00
G01 X24.5780 Y15.3878 F120.00
G01 X24.5771 Y15.3805 F120.00
G01 X24.5770 Y14.8313 F120.00
G01 X16.5440 Y14.8313 F120.00
G01 X16.5440 Y14.9710 F120.00
G01 X16.5436 Y14.9771 F120.00
G01 X16.5422 Y14.9843 F120.00
G01 X16.5397 Y14.9913 F120.00
G01 X16.5356 Y14.9988 F120.00
G01 X16.5302 Y15.0055 F120.00
G01 X16.5238 Y15.0112 F120.00
G01 X16.5165 Y15.0157 F120.00
G01 X16.5097 Y15.0185 F120.00
G01 X16.5025 Y15.0203 F120.00
G01 X16.4940 Y15.0210 F120.00
G01 X14.4891 Y15.0208 F120.00
G01 X14.4819 Y15.0195 F120.00
G01 X14.4737 Y15.0167 F120.00
G01 X14.4673 Y15.0132 F120.00
G01 X14.4613 Y15.0089 F120.00
G01 X14.4561 Y15.0037 F120.00
G01 X14.4518 Y14.9977 F120.00
G01 X14.4483 Y14.9913 F120.00
G01 X14.4455 Y14.9831 F120.00
G01 X14.4444 Y14.9771 F120.00
G01 X14.4440 Y14.9710 F120.00
G01 X14.4440 Y14.8313 F120.00
G01 X8.4899 Y14.8313 F120.00
G01 X7.1623 Y16.1589 F120.00
G01 X7.1623 Y27.7831 F120.00
G01 X10.3949 Y31.0157 F120.00
G01 X24.2230 Y31.0157 F120.00
G01 X24.2230 Y30.8760 F120.00
G01 X24.2234 Y30.8699 F120.00
G01 X24.2245 Y30.8639 F120.00
G01 X24.2273 Y30.8557 F120.00
G01 X24.2308 Y30.8493 F120.00
G01 X24.2351 Y30.8433 F120.00
G01 X24.2403 Y30.8381 F120.00
G01 X24.2463 Y30.8338 F120.00
G01 X24.2539 Y30.8298 F120.00
G01 X24.2609 Y30.8275 F120.00
G01 X24.2681 Y30.8262 F120.00
G01 X26.2730 Y30.8260 F120.00
G01 X26.2791 Y30.8264 F120.00
G01 X26.2840 Y30.8272 F120.00
G01 X26.2898 Y30.8289 F120.00
G01 X26.2944 Y30.8308 F120.00
G01 X26.3008 Y30.8344 F120.00
G01 X26.3057 Y30.8381 F120.00
G01 X26.3109 Y30.8433 F120.00
G01 X26.3146 Y30.8482 F120.00
G01 X26.3182 Y30.8546 F120.00
G01 X26.3205 Y30.8603 F120.00
G01 X26.3223 Y30.8675 F120.00
G01 X26.3230 Y30.8748 F120.00
G01 X26.3230 Y32.5260 F120.00
G01 X26.3220 Y32.5358 F120.00
G01 X26.3196 Y32.5440 F120.00
G01 X26.3165 Y32.5506 F120.00
G01 X26.3117 Y32.5577 F120.00
G01 X26.3066 Y32.5630 F120.00
G01 X26.3008 Y32.5676 F120.00
G01 X26.2933 Y32.5717 F120.00
G01 X26.2863 Y32.5742 F120.00
G01 X26.2779 Y32.5758 F120.00
G01 X25.9583 Y32.5760 F120.00
G01 X25.9583 Y36.4191 F120.00
G01 X26.8269 Y37.2877 F120.00
G01 X38.1767 Y37.2877 F120.00
G01 X38.1767 Y32.5443 F120.00
G01 X38.1195 Y32.4925 F120.00
G01 X38.0519 Y32.4180 F120.00
G01 X37.9904 Y32.3354 F120.00
G01 X37.9360 Y32.2450 F120.00
G01 X37.8919 Y32.1518 F120.00
G01 X37.8566 Y32.0524 F120.00
G01 X37.8322 Y31.9548 F120.00
G01 X37.8174 Y31.8554 F120.00
G01 X37.8120 Y31.7500 F120.00
G01 X37.8171 Y31.6471 F120.00
G01 X37.8322 Y31.5452 F120.00
G01 X37.8572 Y31.4452 F120.00
G01 X37.8919 Y31.3482 F120.00
G01 X37.9349 Y31.2572 F120.00
G01 X37.9890 Y31.1667 F120.00
G01 X38.0488 Y31.0858 F120.00
G01 X38.1213 Y31.0058 F120.00
G01 X38.1959 Y30.9383 F120.00
G01 X38.2787 Y30.8770 F120.00
G01 X38.3670 Y30.8240 F120.00
G01 X38.4602 Y30.7799 F120.00
G01 X38.5572 Y30.7452 F120.00
G01 X38.6572 Y30.7202 F120.00
G01 X38.7591 Y30.7051 F120.00
G01 X38.8608 Y30.7000 F120.00
G01 X38.9649 Y30.7051 F120.00
G01 X39.0668 Y30.7202 F120.00
G01 X39.1668 Y30.7452 F120.00
G01 X39.2615 Y30.7790 F120.00
G01 X39.3591 Y30.8252 F120.00
G01 X39.4453 Y30.8770 F120.00
G01 X39.5300 Y30.9399 F120.00
G01 X39.6045 Y31.0075 F120.00
G01 X39.6737 Y31.0839 F120.00
G01 X39.7350 Y31.1667 F120.00
G01 X39.7880 Y31.2550 F120.00
G01 X39.8321 Y31.3482 F120.00
G01 X39.8668 Y31.4452 F120.00
G01 X39.8918 Y31.5452 F120.00
G01 X39.9069 Y31.6471 F120.00
G01 X39.9120 Y31.7500 F120.00
G01 X39.9066 Y31.8554 F120.00
G01 X39.8918 Y31.9548 F120.00
G01 X39.8674 Y32.0524 F120.00
G01 X39.8321 Y32.1518 F120.00
G01 X39.7880 Y32.2450 F120.00
G01 X39.7336 Y32.3354 F120.00
G01 X39.6721 Y32.4180 F120.00
G01 X39.6045 Y32.4925 F120.00
G01 X39.5473 Y32.5443 F120.00
G01 X39.5473 Y37.2877 F120.00
G01 X59.6601 Y37.2877 F120.00
G01 X61.0367 Y35.9111 F120.00
G01 X61.0367 Y32.1950 F120.00
G01 X60.8490 Y32.1950 F120.00
G01 X60.8392 Y32.1940 F120.00
G01 X60.8322 Y32.1921 F120.00
G01 X60.8244 Y32.1885 F120.00
G01 X60.8173 Y32.1837 F120.00
G01 X60.8120 Y32.1786 F120.00
G01 X60.8074 Y32.1728 F120.00
G01 X60.8033 Y32.1653 F120.00
G01 X60.8008 Y32.1583 F120.00
G01 X60.7992 Y32.1499 F120.00
G01 X60.7990 Y30.4938 F120.00
G01 X60.8000 Y30.4852 F120.00
G01 X60.8028 Y30.4759 F120.00
G01 X60.8074 Y30.4672 F120.00
G01 X60.8136 Y30.4596 F120.00
G01 X60.8202 Y30.4541 F120.00
G01 X60.8287 Y30.4493 F120.00
G01 X60.8380 Y30.4462 F120.00
G01 X60.8478 Y30.4450 F120.00
G01 X62.8502 Y30.4450 F120.00
G01 X62.8588 Y30.4460 F120.00
G01 X62.8658 Y30.4479 F120.00
G01 X62.8736 Y30.4515 F120.00
G01 X62.8798 Y30.4556 F120.00
G01 X62.8860 Y30.4614 F120.00
G01 X62.8906 Y30.4672 F120.00
G01 X62.8947 Y30.4747 F120.00
G01 X62.8975 Y30.4829 F120.00
G01 X62.8986 Y30.4889 F120.00
G01 X62.8990 Y30.4950 F120.00
G01 X62.8990 Y32.1450 F120.00
G01 X62.8986 Y32.1511 F120.00
G01 X62.8972 Y32.1583 F120.00
G01 X62.8947 Y32.1653 F120.00
G01 X62.8912 Y32.1717 F120.00
G01 X62.8860 Y32.1786 F120.00
G01 X62.8807 Y32.1837 F120.00
G01 X62.8747 Y32.1879 F120.00
G01 X62.8681 Y32.1912 F120.00
G01 X62.8600 Y32.1938 F120.00
G01 X62.8527 Y32.1949 F120.00
G01 X62.4073 Y32.1950 F120.00
G01 X62.4073 Y36.1962 F120.00
G01 X62.4037 Y36.2646 F120.00
G01 X62.3941 Y36.3287 F120.00
G01 X62.3785 Y36.3916 F120.00
G01 X62.3552 Y36.4573 F120.00
G01 X62.3275 Y36.5159 F120.00
G01 X62.3218 Y36.5258 F120.00
G01 X68.1488 Y36.5258 F120.00
G01 X68.1488 Y30.6980 F120.00
G01 X67.6763 Y30.6979 F120.00
G01 X67.6690 Y30.6968 F120.00
G01 X67.6620 Y30.6946 F120.00
G01 X67.6554 Y30.6915 F120.00
G01 X67.6492 Y30.6874 F120.00
G01 X67.6438 Y30.6825 F120.00
G01 X67.6391 Y30.6768 F120.00
G01 X67.6353 Y30.6705 F120.00
G01 X67.6325 Y30.6637 F120.00
G01 X67.6305 Y30.6553 F120.00
G01 X67.6300 Y30.6480 F120.00
G01 X67.6300 Y29.3468 F120.00
G01 X67.6312 Y29.3370 F120.00
G01 X67.6343 Y29.3277 F120.00
G01 X67.6384 Y29.3202 F120.00
G01 X67.6446 Y29.3126 F120.00
G01 X67.6522 Y29.3064 F120.00
G01 X67.6609 Y29.3018 F120.00
G01 X67.6690 Y29.2992 F120.00
G01 X67.6788 Y29.2980 F120.00
G01 X69.4812 Y29.2980 F120.00
G01 X69.4885 Y29.2987 F120.00
G01 X69.4968 Y29.3009 F120.00
G01 X69.5046 Y29.3045 F120.00
G01 X69.5108 Y29.3086 F120.00
G01 X69.5170 Y29.3144 F120.00
G01 X69.5216 Y29.3202 F120.00
G01 X69.5252 Y29.3266 F120.00
G01 X69.5278 Y29.3335 F120.00
G01 X69.5295 Y29.3407 F120.00
G01 X69.5300 Y29.3480 F120.00
G01 X69.5300 Y30.6480 F120.00
G01 X69.5293 Y30.6565 F120.00
G01 X69.5266 Y30.6660 F120.00
G01 X69.5235 Y30.6726 F120.00
G01 X69.5202 Y30.6778 F120.00
G01 X69.5154 Y30.6834 F120.00
G01 X69.5098 Y30.6882 F120.00
G01 X69.5036 Y30.6921 F120.00
G01 X69.4968 Y30.6951 F120.00
G01 X69.4898 Y30.6970 F120.00
G01 X69.4837 Y30.6979 F120.00
G01 X69.0112 Y30.6980 F120.00
G01 X69.0112 Y36.5258 F120.00
G01 X69.9254 Y36.5258 F120.00
G01 X73.7368 Y32.7144 F120.00
G01 X73.7368 Y27.0880 F120.00
G01 X73.7389 Y27.0457 F120.00
G01 X73.7451 Y27.0039 F120.00
G01 X73.7554 Y26.9628 F120.00
G01 X73.7680 Y26.9274 F120.00
G01 X73.7680 Y26.1880 F120.00
G01 X73.7701 Y26.1476 F120.00
G01 X73.7757 Y26.1100 F120.00
G01 X73.7846 Y26.0743 F120.00
G01 X73.7984 Y26.0349 F120.00
G01 X73.8164 Y25.9973 F120.00
G01 X73.8354 Y25.9658 F120.00
G01 X73.8588 Y25.9342 F120.00
G01 X73.8852 Y25.9052 F120.00
G01 X73.9124 Y25.8804 F120.00
G01 X73.9458 Y25.8554 F120.00
G01 X73.9794 Y25.8352 F120.00
G01 X74.0127 Y25.8194 F120.00
G01 X74.0543 Y25.8046 F120.00
G01 X74.0900 Y25.7957 F120.00
G01 X74.1288 Y25.7899 F120.00
G01 X74.1680 Y25.7880 F120.00
G01 X74.2048 Y25.7897 F120.00
G01 X74.2484 Y25.7962 F120.00
G01 X74.2841 Y25.8052 F120.00
G01 X74.3188 Y25.8176 F120.00
G01 X74.3587 Y25.8364 F120.00
G01 X74.3902 Y25.8554 F120.00
G01 X74.4218 Y25.8788 F120.00
G01 X74.4525 Y25.9069 F120.00
G01 X74.4772 Y25.9342 F120.00
G01 X74.4999 Y25.9648 F120.00
G01 X74.5208 Y25.9994 F120.00
G01 X74.5384 Y26.0372 F120.00
G01 X74.5508 Y26.0719 F120.00
G01 X74.5598 Y26.1076 F120.00
G01 X74.5661 Y26.1488 F120.00
G01 X74.5680 Y26.1880 F120.00
G01 X74.5680 Y26.9274 F120.00
G01 X74.5806 Y26.9628 F120.00
G01 X74.5909 Y27.0039 F120.00
G01 X74.5971 Y27.0457 F120.00
G01 X74.5992 Y27.0868 F120.00
G01 X74.5992 Y32.8930 F120.00
G01 X74.5970 Y32.9365 F120.00
G01 X74.5909 Y32.9771 F120.00
G01 X74.5813 Y33.0158 F120.00
G01 X74.5664 Y33.0580 F120.00
G01 X74.5483 Y33.0963 F120.00
G01 X74.5278 Y33.1305 F120.00
G01 X74.5005 Y33.1675 F120.00
G01 X74.4729 Y33.1979 F120.00
G01 X73.5713 Y34.0995 F120.00
G01 X73.8386 Y34.3668 F120.00
G01 X76.2360 Y34.3668 F120.00
G01 X76.2361 Y33.8943 F120.00
G01 X76.2372 Y33.8870 F120.00
G01 X76.2389 Y33.8812 F120.00
G01 X76.2419 Y33.8744 F120.00
G01 X76.2458 Y33.8682 F120.00
G01 X76.2506 Y33.8626 F120.00
G01 X76.2562 Y33.8578 F120.00
G01 X76.2614 Y33.8545 F120.00
G01 X76.2680 Y33.8514 F120.00
G01 X76.2762 Y33.8490 F120.00
G01 X76.2860 Y33.8480 F120.00
G01 X77.5860 Y33.8480 F120.00
G01 X77.5958 Y33.8490 F120.00
G01 X77.6051 Y33.8518 F120.00
G01 X77.6117 Y33.8551 F120.00
G01 X77.6177 Y33.8593 F120.00
G01 X77.6230 Y33.8644 F120.00
G01 X77.6276 Y33.8702 F120.00
G01 X77.6312 Y33.8766 F120.00
G01 X77.6338 Y33.8835 F120.00
G01 X77.6355 Y33.8907 F120.00
G01 X77.6360 Y33.8980 F120.00
G01 X77.6360 Y35.6980 F120.00
G01 X77.6356 Y35.7041 F120.00
G01 X77.6345 Y35.7101 F120.00
G01 X77.6326 Y35.7160 F120.00
G01 X77.6301 Y35.7216 F120.00
G01 X77.6269 Y35.7268 F120.00
G01 X77.6239 Y35.7307 F120.00
G01 X77.6196 Y35.7350 F120.00
G01 X77.6148 Y35.7389 F120.00
G01 X77.6085 Y35.7427 F120.00
G01 X77.6005 Y35.7458 F120.00
G01 X77.5933 Y35.7475 F120.00
G01 X77.5860 Y35.7480 F120.00
G01 X76.2860 Y35.7480 F120.00
G01 X76.2775 Y35.7473 F120.00
G01 X76.2692 Y35.7451 F120.00
G01 X76.2635 Y35.7427 F120.00
G01 X76.2572 Y35.7389 F120.00
G01 X76.2515 Y35.7342 F120.00
G01 X76.2466 Y35.7288 F120.00
G01 X76.2425 Y35.7226 F120.00
G01 X76.2394 Y35.7160 F120.00
G01 X76.2372 Y35.7090 F120.00
G01 X76.2361 Y35.7017 F120.00
G01 X76.2360 Y35.2292 F120.00
G01 X73.6600 Y35.2292 F120.00
G01 X73.6177 Y35.2271 F120.00
G01 X73.5747 Y35.2207 F120.00
G01 X73.5325 Y35.2099 F120.00
G01 X73.4950 Y35.1964 F120.00
G01 X73.4589 Y35.1794 F120.00
G01 X73.4204 Y35.1565 F120.00
G01 X73.3865 Y35.1313 F120.00
G01 X73.3551 Y35.1029 F120.00
G01 X72.9615 Y34.7093 F120.00
G01 X70.4080 Y37.2628 F120.00
G01 X70.3775 Y37.2903 F120.00
G01 X70.3456 Y37.3141 F120.00
G01 X70.3073 Y37.3373 F120.00
G01 X70.2690 Y37.3554 F120.00
G01 X70.2315 Y37.3689 F120.00
G01 X70.1869 Y37.3801 F120.00
G01 X70.1463 Y37.3861 F120.00
G01 X70.1040 Y37.3882 F120.00
G01 X61.4980 Y37.3882 F120.00
G01 X60.4286 Y38.4576 F120.00
G01 X60.3797 Y38.5020 F120.00
G01 X60.3227 Y38.5441 F120.00
G01 X60.2671 Y38.5774 F120.00
G01 X60.2063 Y38.6062 F120.00
G01 X60.1429 Y38.6288 F120.00
G01 X60.0801 Y38.6446 F120.00
G01 X60.0087 Y38.6552 F120.00
G01 X59.9440 Y38.6583 F120.00
G01 X48.5642 Y38.6583 F120.00
G01 X48.5642 Y41.0964 F120.00
G01 X50.5976 Y43.1298 F120.00
G01 X98.1194 Y43.1298 F120.00
G01 X99.2638 Y41.9854 F120.00
G01 X99.2638 Y36.3588 F120.00
G01 X99.2053 Y36.3440 F120.00
G01 X99.1326 Y36.3181 F120.00
G01 X99.0582 Y36.2831 F120.00
G01 X98.9879 Y36.2407 F120.00
G01 X98.9259 Y36.1947 F120.00
G01 X98.8686 Y36.1429 F120.00
G01 X98.8133 Y36.0821 F120.00
G01 X98.7645 Y36.0160 F120.00
G01 X98.7249 Y35.9498 F120.00
G01 X98.6918 Y35.8800 F120.00
G01 X98.6647 Y35.8050 F120.00
G01 X98.6446 Y35.7254 F120.00
G01 X98.6327 Y35.6441 F120.00
G01 X98.6290 Y35.5670 F120.00
G01 X98.6327 Y35.4899 F120.00
G01 X98.6446 Y35.4086 F120.00
G01 X98.6640 Y35.3313 F120.00
G01 X98.6918 Y35.2540 F120.00
G01 X98.7249 Y35.1842 F120.00
G01 X98.7645 Y35.1180 F120.00
G01 X98.8118 Y35.0538 F120.00
G01 X98.8686 Y34.9911 F120.00
G01 X98.9259 Y34.9393 F120.00
G01 X98.9899 Y34.8918 F120.00
G01 X99.0582 Y34.8509 F120.00
G01 X99.1280 Y34.8178 F120.00
G01 X99.2077 Y34.7893 F120.00
G01 X99.2826 Y34.7706 F120.00
G01 X99.3590 Y34.7592 F120.00
G01 X99.4385 Y34.7551 F120.00
G01 X99.9502 Y34.7550 F120.00
G01 X100.0310 Y34.7592 F120.00
G01 X100.1074 Y34.7706 F120.00
G01 X100.1823 Y34.7893 F120.00
G01 X100.2597 Y34.8168 F120.00
G01 X100.3318 Y34.8509 F120.00
G01 X100.4021 Y34.8933 F120.00
G01 X100.4641 Y34.9393 F120.00
G01 X100.5214 Y34.9911 F120.00
G01 X100.5767 Y35.0519 F120.00
G01 X100.6235 Y35.1149 F120.00
G01 X100.6320 Y35.1288 F120.00
G01 X103.9614 Y35.1288 F120.00
G01 X104.8518 Y34.2384 F120.00
G01 X104.8518 Y21.8956 F120.00
G01 X103.0794 Y20.1232 F120.00
G01 X100.6362 Y20.1232 F120.00
G01 X100.6235 Y20.1441 F120.00
G01 X100.5775 Y20.2062 F120.00
G01 X100.5240 Y20.2653 F120.00
G01 X100.4641 Y20.3197 F120.00
G01 X100.4011 Y20.3665 F120.00
G01 X100.3318 Y20.4081 F120.00
G01 X100.2597 Y20.4422 F120.00
G01 X100.1847 Y20.4690 F120.00
G01 X100.1062 Y20.4886 F120.00
G01 X100.0286 Y20.5001 F120.00
G01 X99.9502 Y20.5040 F120.00
G01 X99.4410 Y20.5040 F120.00
G01 X99.3626 Y20.5002 F120.00
G01 X99.2826 Y20.4884 F120.00
G01 X99.2053 Y20.4690 F120.00
G01 X99.1303 Y20.4422 F120.00
G01 X99.0582 Y20.4081 F120.00
G01 X98.9879 Y20.3657 F120.00
G01 X98.9259 Y20.3197 F120.00
G01 X98.8668 Y20.2662 F120.00
G01 X98.8133 Y20.2071 F120.00
G01 X98.7673 Y20.1451 F120.00
G01 X98.7238 Y20.0726 F120.00
G01 X98.6908 Y20.0027 F120.00
G01 X98.6647 Y19.9300 F120.00
G01 X98.6442 Y19.8480 F120.00
G01 X98.6329 Y19.7716 F120.00
G01 X98.6290 Y19.6920 F120.00
G01 X98.6329 Y19.6124 F120.00
G01 X98.6442 Y19.5360 F120.00
G01 X98.6647 Y19.4540 F120.00
G01 X98.6908 Y19.3813 F120.00
G01 X98.7249 Y19.3092 F120.00
G01 X98.7673 Y19.2389 F120.00
G01 X98.8133 Y19.1769 F120.00
G01 X98.8668 Y19.1178 F120.00
G01 X98.9259 Y19.0643 F120.00
G01 X98.9879 Y19.0183 F120.00
G01 X99.0582 Y18.9759 F120.00
G01 X99.1303 Y18.9418 F120.00
G01 X99.2030 Y18.9157 F120.00
G01 X99.2850 Y18.8952 F120.00
G01 X99.3614 Y18.8839 F120.00
G01 X99.4398 Y18.8800 F120.00
G01 X99.9502 Y18.8800 F120.00
G01 X100.0310 Y18.8842 F120.00
G01 X100.1074 Y18.8956 F120.00
G01 X100.1835 Y18.9146 F120.00
G01 X100.2597 Y18.9418 F120.00
G01 X100.3318 Y18.9759 F120.00
G01 X100.4001 Y19.0168 F120.00
G01 X100.4632 Y19.0635 F120.00
G01 X100.5232 Y19.1178 F120.00
G01 X100.5759 Y19.1759 F120.00
G01 X100.6235 Y19.2399 F120.00
G01 X100.6362 Y19.2608 F120.00
G01 X103.2580 Y19.2608 F120.00
G01 X103.3003 Y19.2629 F120.00
G01 X103.3421 Y19.2691 F120.00
G01 X103.3832 Y19.2794 F120.00
G01 X103.4230 Y19.2936 F120.00
G01 X103.4613 Y19.3117 F120.00
G01 X103.4976 Y19.3335 F120.00
G01 X103.5315 Y19.3587 F120.00
G01 X103.5629 Y19.3871 F120.00
G01 X105.5879 Y21.4121 F120.00
G01 X105.6163 Y21.4435 F120.00
G01 X105.6415 Y21.4774 F120.00
G01 X105.6633 Y21.5137 F120.00
G01 X105.6814 Y21.5520 F120.00
G01 X105.6956 Y21.5918 F120.00
G01 X105.7059 Y21.6329 F120.00
G01 X105.7121 Y21.6747 F120.00
G01 X105.7142 Y21.7170 F120.00
G01 X105.7142 Y34.4170 F120.00
G01 X105.7121 Y34.4593 F120.00
G01 X105.7059 Y34.5011 F120.00
G01 X105.6956 Y34.5422 F120.00
G01 X105.6823 Y34.5797 F120.00
G01 X105.6633 Y34.6203 F120.00
G01 X105.6415 Y34.6566 F120.00
G01 X105.6178 Y34.6886 F120.00
G01 X105.5879 Y34.7219 F120.00
G01 X104.4440 Y35.8658 F120.00
G01 X104.4116 Y35.8948 F120.00
G01 X104.3796 Y35.9185 F120.00
G01 X104.3454 Y35.9391 F120.00
G01 X104.3050 Y35.9584 F120.00
G01 X104.2663 Y35.9723 F120.00
G01 X104.2217 Y35.9833 F120.00
G01 X104.1823 Y35.9891 F120.00
G01 X104.1400 Y35.9912 F120.00
G01 X100.6404 Y35.9912 F120.00
G01 X100.6235 Y36.0191 F120.00
G01 X100.5775 Y36.0812 F120.00
G01 X100.5240 Y36.1403 F120.00
G01 X100.4641 Y36.1947 F120.00
G01 X100.4011 Y36.2415 F120.00
G01 X100.3318 Y36.2831 F120.00
G01 X100.2597 Y36.3172 F120.00
G01 X100.1847 Y36.3440 F120.00
G01 X100.1262 Y36.3588 F120.00
G01 X100.1262 Y42.1640 F120.00
G01 X100.1241 Y42.2063 F120.00
G01 X100.1177 Y42.2493 F120.00
G01 X100.1076 Y42.2892 F120.00
G01 X100.0943 Y42.3267 F120.00
G01 X100.0753 Y42.3673 F120.00
G01 X100.0521 Y42.4056 F120.00
G01 X100.0283 Y42.4375 F120.00
G01 X100.0008 Y42.4680 F120.00
G01 X98.6029 Y43.8659 F120.00
G01 X98.5696 Y43.8958 F120.00
G01 X98.5376 Y43.9195 F120.00
G01 X98.5013 Y43.9413 F120.00
G01 X98.4630 Y43.9594 F120.00
G01 X98.4255 Y43.9729 F120.00
G01 X98.3809 Y43.9841 F120.00
G01 X98.3403 Y43.9901 F120.00
G01 X98.2980 Y43.9922 F120.00
G01 X50.4190 Y43.9922 F120.00
G01 X50.3767 Y43.9901 F120.00
G01 X50.3349 Y43.9839 F120.00
G01 X50.2938 Y43.9736 F120.00
G01 X50.2563 Y43.9603 F120.00
G01 X50.2157 Y43.9413 F120.00
G01 X50.1774 Y43.9181 F120.00
G01 X50.1455 Y43.8943 F120.00
G01 X50.1150 Y43.8668 F120.00
G01 X47.8281 Y41.5799 F120.00
G01 X47.7997 Y41.5485 F120.00
G01 X47.7759 Y41.5166 F120.00
G01 X47.7522 Y41.4772 F120.00
G01 X47.7337 Y41.4377 F120.00
G01 X47.7204 Y41.4002 F120.00
G01 X47.7106 Y41.3615 F120.00
G01 X47.7039 Y41.3173 F120.00
G01 X47.7018 Y41.2762 F120.00
G01 X47.7018 Y38.6583 F120.00
G01 X26.5430 Y38.6583 F120.00
G01 X26.4758 Y38.6550 F120.00
G01 X26.4105 Y38.6454 F120.00
G01 X26.3417 Y38.6280 F120.00
G01 X26.2807 Y38.6062 F120.00
G01 X26.2199 Y38.5774 F120.00
G01 X26.1603 Y38.5414 F120.00
G01 X26.1082 Y38.5028 F120.00
G01 X26.0593 Y38.4584 F120.00
G01 X24.7867 Y37.1858 F120.00
G01 X24.7417 Y37.1358 F120.00
G01 X24.7032 Y37.0837 F120.00
G01 X24.6698 Y37.0282 F120.00
G01 X24.6398 Y36.9653 F120.00
G01 X24.6180 Y36.9043 F120.00
G01 X24.6004 Y36.8343 F120.00
G01 X24.5910 Y36.7702 F120.00
G01 X24.5877 Y36.7030 F120.00
G01 X24.5877 Y32.5760 F120.00
G01 X24.2718 Y32.5760 F120.00
G01 X24.2657 Y32.5755 F120.00
G01 X24.2597 Y32.5742 F120.00
G01 X24.2539 Y32.5722 F120.00
G01 X24.2494 Y32.5701 F120.00
G01 X24.2442 Y32.5669 F120.00
G01 X24.2403 Y32.5639 F120.00
G01 X24.2360 Y32.5596 F120.00
G01 X24.2321 Y32.5548 F120.00
G01 X24.2289 Y32.5496 F120.00
G01 X24.2264 Y32.5440 F120.00
G01 X24.2248 Y32.5393 F120.00
G01 X24.2235 Y32.5333 F120.00
G01 X24.2230 Y32.5260 F120.00
G01 X24.2230 Y32.3863 F120.00
G01 X10.1110 Y32.3863 F120.00
G01 X10.0414 Y32.3827 F120.00
G01 X9.9773 Y32.3731 F120.00
G01 X9.9121 Y32.3568 F120.00
G01 X9.8465 Y32.3332 F120.00
G01 X9.7879 Y32.3054 F120.00
G01 X9.7313 Y32.2715 F120.00
G01 X9.6762 Y32.2308 F120.00
G01 X9.6264 Y32.1856 F120.00
G01 X5.9916 Y28.5507 F120.00
G01 X5.9472 Y28.5018 F120.00
G01 X5.9086 Y28.4497 F120.00
G01 X5.8726 Y28.3901 F120.00
G01 X5.8430 Y28.3270 F120.00
G01 X5.8212 Y28.2659 F120.00
G01 X5.8054 Y28.2031 F120.00
G01 X5.7950 Y28.1342 F120.00
G01 X5.7917 Y28.0670 F120.00
G01 X5.7917 Y15.8725 F120.00
G00 Z2.0000
G00 X14.2943 Y15.6210
G01 F60.00
G01 Z0.0000
G01 F120.00
G01 X14.2649 Y15.6308 F120.00
G01 X14.2493 Y15.6366 F120.00
G01 X14.2184 Y15.6493 F120.00
G01 X14.2033 Y15.6563 F120.00
G01 X14.1735 Y15.6713 F120.00
G01 X14.1444 Y15.6877 F120.00
G01 X14.1302 Y15.6965 F120.00
G01 X14.1025 Y15.7150 F120.00
G01 X14.0756 Y15.7349 F120.00
G01 X14.0626 Y15.7454 F120.00
G01 X14.0373 Y15.7672 F120.00
G01 X14.0251 Y15.7785 F120.00
G01 X14.0015 Y15.8021 F120.00
G01 X13.9902 Y15.8143 F120.00
G01 X13.9684 Y15.8396 F120.00
G01 X13.9579 Y15.8526 F120.00
G01 X13.9380 Y15.8795 F120.00
G01 X13.9286 Y15.8932 F120.00
G01 X13.9107 Y15.9214 F120.00
G01 X13.8943 Y15.9505 F120.00
G01 X13.8866 Y15.9653 F120.00
G01 X13.8723 Y15.9954 F120.00
G01 X13.8658 Y16.0108 F120.00
G01 X13.8538 Y16.0419 F120.00
G01 X13.8483 Y16.0577 F120.00
G01 X13.8433 Y16.0736 F120.00
G01 X13.8344 Y16.1058 F120.00
G01 X13.8271 Y16.1383 F120.00
G01 X13.8214 Y16.1712 F120.00
G01 X13.8173 Y16.2043 F120.00
G01 X13.8148 Y16.2376 F120.00
G01 X13.8140 Y16.2710 F120.00
G01 X13.8140 Y17.9210 F120.00
G01 X13.8142 Y17.9377 F120.00
G01 X13.8158 Y17.9710 F120.00
G01 X13.8173 Y17.9877 F120.00
G01 X13.8214 Y18.0208 F120.00
G01 X13.8271 Y18.0537 F120.00
G01 X13.8305 Y18.0700 F120.00
G01 X13.8386 Y18.1024 F120.00
G01 X13.8483 Y18.1343 F120.00
G01 X13.8538 Y18.1501 F120.00
G01 X13.8658 Y18.1812 F120.00
G01 X13.8723 Y18.1966 F120.00
G01 X13.8866 Y18.2267 F120.00
G01 X13.8943 Y18.2415 F120.00
G01 X13.9107 Y18.2706 F120.00
G01 X13.9286 Y18.2988 F120.00
G01 X13.9478 Y18.3261 F120.00
G01 X13.9684 Y18.3524 F120.00
G01 X13.9902 Y18.3777 F120.00
G01 X14.0132 Y18.4018 F120.00
G01 X14.0251 Y18.4135 F120.00
G01 X14.0498 Y18.4359 F120.00
G01 X14.0756 Y18.4571 F120.00
G01 X14.1025 Y18.4770 F120.00
G01 X14.1162 Y18.4864 F120.00
G01 X14.1302 Y18.4955 F120.00
G01 X14.1588 Y18.5127 F120.00
G01 X14.1735 Y18.5207 F120.00
G01 X14.2033 Y18.5357 F120.00
G01 X14.2338 Y18.5492 F120.00
G01 X14.2649 Y18.5612 F120.00
G01 X14.2966 Y18.5717 F120.00
G01 X14.3126 Y18.5764 F120.00
G01 X14.3450 Y18.5845 F120.00
G01 X14.3777 Y18.5910 F120.00
G01 X14.3942 Y18.5936 F120.00
G01 X14.4108 Y18.5959 F120.00
G01 X14.4440 Y18.5992 F120.00
G01 X14.4606 Y18.6002 F120.00
G01 X14.4940 Y18.6010 F120.00
G01 X16.4940 Y18.6010 F120.00
G01 X16.5107 Y18.6008 F120.00
G01 X16.5440 Y18.5992 F120.00
G01 X16.5772 Y18.5959 F120.00
G01 X16.6103 Y18.5910 F120.00
G01 X16.6267 Y18.5879 F120.00
G01 X16.6592 Y18.5806 F120.00
G01 X16.6914 Y18.5717 F120.00
G01 X16.7231 Y18.5612 F120.00
G01 X16.7542 Y18.5492 F120.00
G01 X16.7696 Y18.5427 F120.00
G01 X16.7997 Y18.5284 F120.00
G01 X16.8292 Y18.5127 F120.00
G01 X16.8578 Y18.4955 F120.00
G01 X16.8718 Y18.4864 F120.00
G01 X16.8991 Y18.4672 F120.00
G01 X16.9254 Y18.4466 F120.00
G01 X16.9507 Y18.4248 F120.00
G01 X16.9651 Y18.4113 F120.00
G01 X24.4410 Y18.4113 F120.00
G01 X24.4217 Y18.4291 F120.00
G01 X24.4098 Y18.4408 F120.00
G01 X24.3868 Y18.4649 F120.00
G01 X24.3164 Y18.5429 F120.00
G01 X24.3056 Y18.5557 F120.00
G01 X24.2851 Y18.5820 F120.00
G01 X24.2227 Y18.6664 F120.00
G01 X24.2042 Y18.6942 F120.00
G01 X24.1500 Y18.7842 F120.00
G01 X24.1336 Y18.8132 F120.00
G01 X24.1259 Y18.8280 F120.00
G01 X24.0808 Y18.9228 F120.00
G01 X24.0673 Y18.9534 F120.00
G01 X24.0553 Y18.9845 F120.00
G01 X24.0255 Y19.0677 F120.00
G01 X24.0150 Y19.0994 F120.00
G01 X24.0061 Y19.1315 F120.00
G01 X23.9847 Y19.2172 F120.00
G01 X23.9774 Y19.2498 F120.00
G01 X23.9717 Y19.2826 F120.00
G01 X23.9587 Y19.3700 F120.00
G01 X23.9546 Y19.4031 F120.00
G01 X23.9522 Y19.4364 F120.00
G01 X23.9478 Y19.5246 F120.00
G01 X23.9470 Y19.5580 F120.00
G01 X23.9478 Y19.5914 F120.00
G01 X23.9522 Y19.6796 F120.00
G01 X23.9546 Y19.7129 F120.00
G01 X23.9587 Y19.7460 F120.00
G01 X23.9743 Y19.8498 F120.00
G01 X23.9808 Y19.8826 F120.00
G01 X23.9847 Y19.8988 F120.00
G01 X24.0061 Y19.9845 F120.00
G01 X24.0150 Y20.0166 F120.00
G01 X24.0255 Y20.0483 F120.00
G01 X24.0553 Y20.1315 F120.00
G01 X24.0673 Y20.1626 F120.00
G01 X24.0808 Y20.1932 F120.00
G01 X24.1186 Y20.2730 F120.00
G01 X24.1336 Y20.3028 F120.00
G01 X24.1500 Y20.3318 F120.00
G01 X24.1954 Y20.4076 F120.00
G01 X24.2107 Y20.4318 F120.00
G01 X24.2116 Y22.9734 F120.00
G01 X24.1888 Y23.0045 F120.00
G01 X24.1703 Y23.0322 F120.00
G01 X24.1294 Y23.0999 F120.00
G01 X24.1130 Y23.1290 F120.00
G01 X24.0980 Y23.1588 F120.00
G01 X24.0644 Y23.2303 F120.00
G01 X24.0516 Y23.2611 F120.00
G01 X24.0458 Y23.2768 F120.00
G01 X24.0248 Y23.3355 F120.00
G01 X24.0143 Y23.3672 F120.00
G01 X24.0054 Y23.3994 F120.00
G01 X23.9864 Y23.4761 F120.00
G01 X23.9799 Y23.5088 F120.00
G01 X23.9681 Y23.5870 F120.00
G01 X23.9640 Y23.6201 F120.00
G01 X23.9616 Y23.6534 F120.00
G01 X23.9585 Y23.7156 F120.00
G01 X23.9577 Y23.7490 F120.00
G01 X23.9577 Y27.3236 F120.00
G01 X23.9378 Y27.3343 F120.00
G01 X23.9234 Y27.3427 F120.00
G01 X23.8952 Y27.3606 F120.00
G01 X23.8815 Y27.3700 F120.00
G01 X23.8546 Y27.3899 F120.00
G01 X23.8288 Y27.4111 F120.00
G01 X23.8163 Y27.4222 F120.00
G01 X23.7922 Y27.4452 F120.00
G01 X23.7805 Y27.4571 F120.00
G01 X23.7581 Y27.4818 F120.00
G01 X23.7474 Y27.4946 F120.00
G01 X23.7268 Y27.5209 F120.00
G01 X23.7076 Y27.5482 F120.00
G01 X23.6985 Y27.5622 F120.00
G01 X23.6897 Y27.5764 F120.00
G01 X23.6733 Y27.6055 F120.00
G01 X23.6656 Y27.6203 F120.00
G01 X23.6513 Y27.6504 F120.00
G01 X23.6386 Y27.6813 F120.00
G01 X23.6328 Y27.6969 F120.00
G01 X23.6223 Y27.7286 F120.00
G01 X23.6134 Y27.7608 F120.00
G01 X23.6095 Y27.7770 F120.00
G01 X23.6030 Y27.8097 F120.00
G01 X23.5981 Y27.8428 F120.00
G01 X23.5963 Y27.8593 F120.00
G01 X23.5948 Y27.8760 F120.00
G01 X23.5932 Y27.9093 F120.00
G01 X23.5930 Y29.5760 F120.00
G01 X23.5938 Y29.6094 F120.00
G01 X23.5963 Y29.6427 F120.00
G01 X23.6004 Y29.6758 F120.00
G01 X23.6061 Y29.7087 F120.00
G01 X23.6134 Y29.7412 F120.00
G01 X23.6176 Y29.7574 F120.00
G01 X23.6223 Y29.7734 F120.00
G01 X23.6328 Y29.8051 F120.00
G01 X23.6386 Y29.8207 F120.00
G01 X23.6513 Y29.8516 F120.00
G01 X23.6656 Y29.8817 F120.00
G01 X23.6813 Y29.9112 F120.00
G01 X23.6897 Y29.9256 F120.00
G01 X23.7076 Y29.9538 F120.00
G01 X23.7268 Y29.9811 F120.00
G01 X23.7369 Y29.9944 F120.00
G01 X23.7474 Y30.0074 F120.00
G01 X23.7692 Y30.0327 F120.00
G01 X23.7922 Y30.0568 F120.00
G01 X23.8163 Y30.0798 F120.00
G01 X23.8288 Y30.0909 F120.00
G01 X23.8546 Y30.1121 F120.00
G01 X23.8679 Y30.1222 F120.00
G01 X23.8952 Y30.1414 F120.00
G01 X23.9092 Y30.1505 F120.00
G01 X23.9378 Y30.1677 F120.00
G01 X23.9525 Y30.1757 F120.00
G01 X23.9823 Y30.1907 F120.00
G01 X24.0128 Y30.2042 F120.00
G01 X24.0283 Y30.2104 F120.00
G01 X24.0439 Y30.2162 F120.00
G01 X24.0733 Y30.2260 F120.00
G01 X24.0439 Y30.2358 F120.00
G01 X24.0283 Y30.2416 F120.00
G01 X23.9974 Y30.2543 F120.00
G01 X23.9673 Y30.2686 F120.00
G01 X23.9378 Y30.2843 F120.00
G01 X23.9234 Y30.2927 F120.00
G01 X23.8952 Y30.3106 F120.00
G01 X23.8815 Y30.3200 F120.00
G01 X23.8546 Y30.3399 F120.00
G01 X23.8288 Y30.3611 F120.00
G01 X23.8163 Y30.3722 F120.00
G01 X23.8019 Y30.3857 F120.00
G01 X10.6558 Y30.3857 F120.00
G01 X7.7923 Y27.5222 F120.00
G01 X7.7923 Y16.4198 F120.00
G01 X8.7508 Y15.4613 F120.00
G01 X14.0229 Y15.4613 F120.00
G01 X14.0373 Y15.4748 F120.00
G01 X14.0498 Y15.4859 F120.00
G01 X14.0756 Y15.5071 F120.00
G01 X14.0889 Y15.5172 F120.00
G01 X14.1162 Y15.5364 F120.00
G01 X14.1444 Y15.5543 F120.00
G01 X14.1588 Y15.5627 F120.00
G01 X14.1883 Y15.5784 F120.00
G01 X14.2184 Y15.5927 F120.00
G01 X14.2493 Y15.6054 F120.00
G01 X14.2649 Y15.6112 F120.00
G01 X14.2943 Y15.6210 F120.00
G00 Z2.0000
G00 X14.4940 Y15.8610
G01 F60.00
G01 Z0.0000
G01 F120.00
G01 X16.4940 Y15.8610 F120.00
G01 X16.5242 Y15.8621 F120.00
G01 X16.5442 Y15.8641 F120.00
G01 X16.5740 Y15.8689 F120.00
G01 X16.5936 Y15.8733 F120.00
