(G-CODE GENERATED BY FLATCAM v8.994 - www.flatcam.org - Version Date: 2020/11/7)

(Name: cutout.svg_cutout_cnc)
(Type: G-code from Geometry)
(Units: MM)

(Created on Monday, 08 July 2024 at 11:20)

(This preprocessor is used with a motion controller loaded with GRBL firmware.)
(It is configured to be compatible with almost any version of GRBL firmware.)

(TOOL DIAMETER: 2.4 mm)
(Feedrate_XY: 120.0 mm/min)
(Feedrate_Z: 60.0 mm/min)
(Feedrate rapids 1500.0 mm/min)

(Z_Cut: -2.0 mm)
(DepthPerCut: 0.2 mm <=>10 passes)
(Z_Move: 2.0 mm)
(Z Start: None mm)
(Z End: 15.0 mm)
(X,Y End: None mm)
(Steps per circle: 64)
(Steps per circle: 64)
(Preprocessor Geometry: GRBL_11_no_M6)

(X range:    0.0000 ...   70.2000  mm)
(Y range:    0.0000 ...   26.3000  mm)

(Spindle Speed: 1000.0 RPM)
G21
G90
G17
G94


G01 F120.00

M5             
G00 Z15.0000
G00 X0.0000 Y0.0000                
T1
(MSG, Change to Tool Dia = 2.4000)
M0
G00 Z15.0000
        
M03 S1000.0
G01 F120.00
G00 X14.4000 Y0.0000
G01 F60.00
G01 Z-0.2000
G01 F120.00
G01 X0.0000 Y0.0000 F120.00
G01 X0.0000 Y26.3000 F120.00
G01 X14.4000 Y26.3000 F120.00
G00 X14.4000 Y26.3000
G01 F60.00
G01 Z-0.4000
G01 F120.00
G01 X0.0000 Y26.3000 F120.00
G01 X0.0000 Y0.0000 F120.00
G01 X14.4000 Y0.0000 F120.00
G00 X14.4000 Y0.0000
G01 F60.00
G01 Z-0.6000
G01 F120.00
G01 X0.0000 Y0.0000 F120.00
G01 X0.0000 Y26.3000 F120.00
G01 X14.4000 Y26.3000 F120.00
G00 X14.4000 Y26.3000
G01 F60.00
G01 Z-0.8000
G01 F120.00
G01 X0.0000 Y26.3000 F120.00
G01 X0.0000 Y0.0000 F120.00
G01 X14.4000 Y0.0000 F120.00
G00 X14.4000 Y0.0000
G01 F60.00
G01 Z-1.0000
G01 F120.00
G01 X0.0000 Y0.0000 F120.00
G01 X0.0000 Y26.3000 F120.00
G01 X14.4000 Y26.3000 F120.00
G00 X14.4000 Y26.3000
G01 F60.00
G01 Z-1.2000
G01 F120.00
G01 X0.0000 Y26.3000 F120.00
G01 X0.0000 Y0.0000 F120.00
G01 X14.4000 Y0.0000 F120.00
G00 X14.4000 Y0.0000
G01 F60.00
G01 Z-1.4000
G01 F120.00
G01 X0.0000 Y0.0000 F120.00
G01 X0.0000 Y26.3000 F120.00
G01 X14.4000 Y26.3000 F120.00
G00 X14.4000 Y26.3000
G01 F60.00
G01 Z-1.6000
G01 F120.00
G01 X0.0000 Y26.3000 F120.00
G01 X0.0000 Y0.0000 F120.00
G01 X14.4000 Y0.0000 F120.00
G00 X14.4000 Y0.0000
G01 F60.00
G01 Z-1.8000
G01 F120.00
G01 X0.0000 Y0.0000 F120.00
G01 X0.0000 Y26.3000 F120.00
G01 X14.4000 Y26.3000 F120.00
G00 X14.4000 Y26.3000
G01 F60.00
G01 Z-2.0000
G01 F120.00
G01 X0.0000 Y26.3000 F120.00
G01 X0.0000 Y0.0000 F120.00
G01 X14.4000 Y0.0000 F120.00
G00 Z2.0000
G00 X20.8000 Y0.0000
G01 F60.00
G01 Z-0.2000
G01 F120.00
G01 X49.6000 Y0.0000 F120.00
G00 X49.6000 Y0.0000
G01 F60.00
G01 Z-0.4000
G01 F120.00
G01 X20.8000 Y0.0000 F120.00
G00 X20.8000 Y0.0000
G01 F60.00
G01 Z-0.6000
G01 F120.00
G01 X49.6000 Y0.0000 F120.00
G00 X49.6000 Y0.0000
G01 F60.00
G01 Z-0.8000
G01 F120.00
G01 X20.8000 Y0.0000 F120.00
G00 X20.8000 Y0.0000
G01 F60.00
G01 Z-1.0000
G01 F120.00
G01 X49.6000 Y0.0000 F120.00
G00 X49.6000 Y0.0000
G01 F60.00
G01 Z-1.2000
G01 F120.00
G01 X20.8000 Y0.0000 F120.00
G00 X20.8000 Y0.0000
G01 F60.00
G01 Z-1.4000
G01 F120.00
G01 X49.6000 Y0.0000 F120.00
G00 X49.6000 Y0.0000
G01 F60.00
G01 Z-1.6000
G01 F120.00
G01 X20.8000 Y0.0000 F120.00
G00 X20.8000 Y0.0000
G01 F60.00
G01 Z-1.8000
G01 F120.00
G01 X49.6000 Y0.0000 F120.00
G00 X49.6000 Y0.0000
G01 F60.00
G01 Z-2.0000
G01 F120.00
G01 X20.8000 Y0.0000 F120.00
G00 Z2.0000
G00 X56.0000 Y0.0000
G01 F60.00
G01 Z-0.2000
G01 F120.00
G01 X70.2000 Y0.0000 F120.00
G01 X70.2000 Y26.3000 F120.00
G01 X56.0000 Y26.3000 F120.00
G00 X56.0000 Y26.3000
G01 F60.00
G01 Z-0.4000
G01 F120.00
G01 X70.2000 Y26.3000 F120.00
G01 X70.2000 Y0.0000 F120.00
G01 X56.0000 Y0.0000 F120.00
G00 X56.0000 Y0.0000
G01 F60.00
G01 Z-0.6000
G01 F120.00
G01 X70.2000 Y0.0000 F120.00
G01 X70.2000 Y26.3000 F120.00
G01 X56.0000 Y26.3000 F120.00
G00 X56.0000 Y26.3000
G01 F60.00
G01 Z-0.8000
G01 F120.00
G01 X70.2000 Y26.3000 F120.00
G01 X70.2000 Y0.0000 F120.00
G01 X56.0000 Y0.0000 F120.00
G00 X56.0000 Y0.0000
G01 F60.00
G01 Z-1.0000
G01 F120.00
G01 X70.2000 Y0.0000 F120.00
G01 X70.2000 Y26.3000 F120.00
G01 X56.0000 Y26.3000 F120.00
G00 X56.0000 Y26.3000
G01 F60.00
G01 Z-1.2000
G01 F120.00
G01 X70.2000 Y26.3000 F120.00
G01 X70.2000 Y0.0000 F120.00
G01 X56.0000 Y0.0000 F120.00
G00 X56.0000 Y0.0000
G01 F60.00
G01 Z-1.4000
G01 F120.00
G01 X70.2000 Y0.0000 F120.00
G01 X70.2000 Y26.3000 F120.00
G01 X56.0000 Y26.3000 F120.00
G00 X56.0000 Y26.3000
G01 F60.00
G01 Z-1.6000
G01 F120.00
G01 X70.2000 Y26.3000 F120.00
G01 X70.2000 Y0.0000 F120.00
G01 X56.0000 Y0.0000 F120.00
G00 X56.0000 Y0.0000
G01 F60.00
G01 Z-1.8000
G01 F120.00
G01 X70.2000 Y0.0000 F120.00
G01 X70.2000 Y26.3000 F120.00
G01 X56.0000 Y26.3000 F120.00
G00 X56.0000 Y26.3000
G01 F60.00
G01 Z-2.0000
G01 F120.00
G01 X70.2000 Y26.3000 F120.00
G01 X70.2000 Y0.0000 F120.00
G01 X56.0000 Y0.0000 F120.00
G00 Z2.0000
G00 X49.6000 Y26.3000
G01 F60.00
G01 Z-0.2000
G01 F120.00
G01 X20.8000 Y26.3000 F120.00
G00 X20.8000 Y26.3000
G01 F60.00
G01 Z-0.4000
G01 F120.00
G01 X49.6000 Y26.3000 F120.00
G00 X49.6000 Y26.3000
G01 F60.00
G01 Z-0.6000
G01 F120.00
G01 X20.8000 Y26.3000 F120.00
G00 X20.8000 Y26.3000
G01 F60.00
G01 Z-0.8000
G01 F120.00
G01 X49.6000 Y26.3000 F120.00
G00 X49.6000 Y26.3000
G01 F60.00
G01 Z-1.0000
G01 F120.00
G01 X20.8000 Y26.3000 F120.00
G00 X20.8000 Y26.3000
G01 F60.00
G01 Z-1.2000
G01 F120.00
G01 X49.6000 Y26.3000 F120.00
G00 X49.6000 Y26.3000
G01 F60.00
G01 Z-1.4000
G01 F120.00
G01 X20.8000 Y26.3000 F120.00
G00 X20.8000 Y26.3000
G01 F60.00
G01 Z-1.6000
G01 F120.00
G01 X49.6000 Y26.3000 F120.00
G00 X49.6000 Y26.3000
G01 F60.00
G01 Z-1.8000
G01 F120.00
G01 X20.8000 Y26.3000 F120.00
G00 X20.8000 Y26.3000
G01 F60.00
G01 Z-2.0000
G01 F120.00
G01 X49.6000 Y26.3000 F120.00
G00 Z2.0000
M05
G00 Z2.0000
G00 Z15.00


